; generated by PrusaSlicer 2.6.1 on 2023-12-18 at 13:14:58 UTC


;
;
; 

; external perimeters extrusion width = 0.45mm
; perimeters extrusion width = 0.45mm
; infill extrusion width = 0.45mm
; solid infill extrusion width = 0.45mm
; top infill extrusion width = 0.40mm
; support material extrusion width = 0.35mm
; first layer extrusion width = 0.42mm

M73 P0 R93
M73 Q0 S96
M201 X1000 Y1000 Z200 E5000 ; sets maximum accelerations, mm/sec^2
M203 X200 Y200 Z12 E120 ; sets maximum feedrates, mm / sec
M204 S1250 T1250 ; sets acceleration (S) and retract acceleration (R), mm/sec^2
M205 X8.00 Y8.00 Z0.40 E4.50 ; sets the jerk limits, mm/sec
M205 S0 T0 ; sets the minimum extruding and travel feed rate, mm/sec
;TYPE:Custom
M862.3 P "MK3" ; printer model check
M862.1 P0.4 ; nozzle diameter check
M115 U3.13.0 ; tell printer latest fw version
G90 ; use absolute coordinates
M83 ; extruder relative mode
M104 S215 ; set extruder temp
M140 S60 ; set bed temp
M190 S60 ; wait for bed temp
M109 S215 ; wait for extruder temp
G28 W ; home all without mesh bed level
G80 ; mesh bed leveling

G1 Z0.2 F720
G1 Y-3 F1000 ; go outside print area
G92 E0
G1 X60 E9 F1000 ; intro line
G1 X100 E12.5 F1000 ; intro line

G92 E0
M221 S95

; Don't change E values below. Excessive value can damage the printer.

M907 E538 ; set extruder motor current
G21 ; set units to millimeters
G90 ; use absolute coordinates
M83 ; use relative distances for extrusion
M900 K0.05 ; Filament gcode LA 1.5
M900 K30 ; Filament gcode LA 1.0
M107
;LAYER_CHANGE
;Z:0.2
;HEIGHT:0.2
;BEFORE_LAYER_CHANGE
G92 E0.0
;0.2


G1 E-.8 F2100
G1 Z.4 F720
;AFTER_LAYER_CHANGE
;0.2
G1 X71.775 Y88.864 F10800
G1 Z.2 F720
G1 E.8 F2100
M204 S800
;TYPE:Skirt/Brim
;WIDTH:0.42
G1 F1200
G1 X72.513 Y88.268 E.02974
G1 X74.228 Y87.116 E.06478
G1 X76.048 Y86.139 E.06477
G1 X77.956 Y85.347 E.06477
G1 X79.933 Y84.747 E.06478
G1 X81.843 Y84.364 E.06108
G1 X83.898 Y84.153 E.06477
G1 X85.477 Y84.137 E.04951
G1 X190.273 Y85.837 E3.28624
G1 X191.574 Y86.25 E.0428
G1 X192.433 Y87.31 E.04278
G1 X192.612 Y88.214 E.02889
G1 X192.612 Y112.558 E.76329
G1 X191.997 Y114.153 E.0536
G1 X185.26 Y121.595 E.31475
G1 X183.582 Y122.376 E.05803
G1 X85.963 Y125.854 E3.06272
G1 X84.016 Y125.853 E.06105
G1 X82.485 Y125.721 E.04818
G1 X79.818 Y125.223 E.08507
G1 X77.956 Y124.653 E.06106
G1 X76.048 Y123.861 E.06477
G1 X74.228 Y122.884 E.06477
G1 X72.876 Y121.994 E.05075
G1 X71.255 Y120.713 E.06478
G1 X69.838 Y119.349 E.06167
G1 X68.496 Y117.782 E.06469
G1 X67.835 Y116.867 E.03539
G1 X66.967 Y115.519 E.05027
G1 X66.016 Y113.685 E.06477
G1 X65.288 Y111.878 E.06108
G1 X64.705 Y109.897 E.06475
G1 X64.32 Y107.867 E.06478
G1 X64.138 Y105.809 E.06478
G1 X64.138 Y104.191 E.05073
G1 X64.32 Y102.133 E.06478
G1 X64.705 Y100.103 E.06478
M73 Q0 S95
G1 X65.288 Y98.122 E.06475
G1 X66.064 Y96.207 E.06479
G1 X66.967 Y94.481 E.06108
G1 X68.095 Y92.751 E.06475
G1 X69.09 Y91.496 E.05022
G1 X69.838 Y90.651 E.03538
G1 X71.329 Y89.225 E.06469
G1 X71.729 Y88.902 E.01612
M204 S1000
; printing object ARM-Last-Arm-Body.stl id:0 copy 0
;WIPE_START
G1 F8640
G1 X72.513 Y88.268 E-.23281
G1 X74.228 Y87.116 E-.47704
G1 X74.572 Y86.931 E-.09015
;WIPE_END
G1 Z.6 F720
G1 X190.235 Y112.558 F10800
G1 Z.2 F720
G1 E.8 F2100
M204 S800
;TYPE:Support material
G1 F1200
G1 X183.578 Y112.558 E.20873
G1 X183.578 Y90.201 E.70099
G1 X183.297 Y89.92 E.01246
G1 X182.041 Y89.92 E.03938
G1 X182.041 Y88.214 E.05349
G1 X190.235 Y88.214 E.25692
G1 X190.235 Y112.501 E.7615
M204 S1000
G1 X189.522 Y112.388 F10800
M204 S800
G1 F1200
G1 X189.522 Y88.553 E.74733
G1 X189.103 Y88.553 E.01314
G1 X189.103 Y112.218 E.742
G1 X188.685 Y112.218 E.01311
G1 X188.685 Y88.553 E.742
G1 X188.266 Y88.553 E.01314
G1 X188.266 Y112.218 E.742
G1 X187.847 Y112.218 E.01314
G1 X187.847 Y88.553 E.742
G1 X187.428 Y88.553 E.01314
G1 X187.428 Y112.218 E.742
G1 X187.009 Y112.218 E.01314
G1 X187.009 Y88.553 E.742
G1 X186.59 Y88.553 E.01314
G1 X186.59 Y112.218 E.742
G1 X186.171 Y112.218 E.01314
G1 X186.171 Y88.553 E.742
G1 X185.752 Y88.553 E.01314
G1 X185.752 Y112.218 E.742
G1 X185.333 Y112.218 E.01314
G1 X185.333 Y88.553 E.742
G1 X184.914 Y88.553 E.01314
G1 X184.914 Y112.218 E.742
G1 X184.495 Y112.218 E.01314
G1 X184.495 Y88.553 E.742
G1 X184.076 Y88.553 E.01314
G1 X184.076 Y112.218 E.742
G1 X183.917 Y112.218 E.00499
G1 X183.917 Y90.061 E.69472
G1 X183.657 Y89.8 E.01155
G1 X183.657 Y88.553 E.0391
G1 X183.238 Y88.553 E.01314
G1 X183.238 Y89.581 E.03223
G1 X182.819 Y89.581 E.01314
G1 X182.819 Y88.553 E.03223
G1 X182.4 Y88.553 E.01314
G1 X182.4 Y89.75 E.03753
M204 S1000
;WIPE_START
G1 F8640
G1 X182.4 Y88.553 E-.27639
G1 X182.819 Y88.553 E-.09675
G1 X182.819 Y89.581 E-.23737
G1 X183.238 Y89.581 E-.09675
G1 X183.238 Y89.179 E-.09274
;WIPE_END
G1 Z.6 F720
G1 X77.845 Y112.618 F10800
G1 Z.2 F720
G1 E.8 F2100
M204 S800
;TYPE:Perimeter
;WIDTH:0.419999
G1 F1200
G1 X77.675 Y112.578 E.00548
G1 X77.501 Y112.444 E.00689
G1 X77.39 Y112.252 E.00695
G1 X77.361 Y111.441 E.02544
G1 X77.361 Y97.929 E.42366
G1 X77.431 Y97.655 E.00887
G1 X77.583 Y97.479 E.00729
G1 X77.832 Y97.371 E.00851
G1 X78.545 Y97.363 E.02236
G1 X92.069 Y97.363 E.42403
G1 X92.309 Y97.416 E.00771
G1 X92.479 Y97.538 E.00656
G1 X92.619 Y97.794 E.00915
G1 X92.635 Y98.673 E.02756
G1 X92.635 Y112.071 E.42008
G1 X92.593 Y112.284 E.00681
M73 P0 R92
G1 X92.462 Y112.479 E.00737
G1 X92.23 Y112.614 E.00842
G1 X91.199 Y112.637 E.03233
G1 X77.904 Y112.632 E.41685
M204 S1000
G1 X77.926 Y112.26 F10800
M204 S800
;TYPE:External perimeter
G1 F1200
G1 X77.785 Y112.196 E.00486
G1 X77.738 Y112.071 E.00419
G1 X77.738 Y97.929 E.44341
G1 X77.761 Y97.837 E.00297
G1 X77.895 Y97.743 E.00513
G1 X78.545 Y97.74 E.02038
G1 X92.069 Y97.74 E.42403
G1 X92.206 Y97.798 E.00466
G1 X92.258 Y97.929 E.00442
G1 X92.258 Y112.071 E.44341
G1 X92.2 Y112.207 E.00464
G1 X92.069 Y112.26 E.00443
G1 X77.986 Y112.26 E.44156
M204 S1000
G1 X77.814 Y112.368 F10800
;WIPE_START
G1 F8640
G1 X77.785 Y112.196 E-.04871
G1 X77.738 Y112.071 E-.03084
G1 X77.738 Y108.951 E-.72045
;WIPE_END
G1 Z.6 F720
G1 X118.219 Y99.31 F10800
G1 Z.2 F720
G1 E.8 F2100
M204 S800
;TYPE:Perimeter
G1 F1200
G1 X118.179 Y99.183 E.00417
G1 X118.168 Y98.959 E.00703
G1 X118.251 Y98.477 E.01534
G1 X118.503 Y98.039 E.01584
G1 X118.655 Y97.875 E.00701
G1 X118.968 Y97.65 E.01209
G1 X119.172 Y97.558 E.00702
G1 X119.674 Y97.458 E.01605
G1 X120.151 Y97.534 E.01514
G1 X120.36 Y97.615 E.00703
G1 X120.774 Y97.898 E.01572
G1 X121.117 Y98.405 E.01919
G1 X121.234 Y98.968 E.01803
G1 X121.148 Y99.485 E.01643
G1 X121.06 Y99.691 E.00702
G1 X120.759 Y100.107 E.0161
G1 X120.32 Y100.398 E.01651
G1 X119.834 Y100.521 E.01572
G1 X119.638 Y100.526 E.00615
G1 X119.173 Y100.439 E.01483
G1 X118.719 Y100.178 E.01642
G1 X118.349 Y99.726 E.01831
G1 X118.237 Y99.367 E.01179
M204 S1000
G1 X118.644 Y99.438 F10800
M204 S800
;TYPE:External perimeter
G1 F1200
G1 X118.541 Y99.015 E.01365
G1 X118.624 Y98.564 E.01438
G1 X118.876 Y98.181 E.01437
G1 X119.256 Y97.926 E.01435
G1 X119.706 Y97.838 E.01438
G1 X120.155 Y97.932 E.01438
G1 X120.532 Y98.193 E.01438
G1 X120.778 Y98.58 E.01438
G1 X120.854 Y99.032 E.01437
G1 X120.749 Y99.479 E.0144
G1 X120.478 Y99.849 E.01438
G1 X120.09 Y100.084 E.01422
G1 X119.694 Y100.153 E.0126
G1 X119.294 Y100.079 E.01275
G1 X118.905 Y99.837 E.01436
G1 X118.659 Y99.496 E.01318
M204 S1000
G1 X118.246 Y99.398 F10800
;WIPE_START
G1 F8640
G1 X118.541 Y99.015 E-.11436
G1 X118.624 Y98.564 E-.10589
G1 X118.876 Y98.181 E-.10586
G1 X119.256 Y97.926 E-.10567
G1 X119.706 Y97.838 E-.10587
G1 X120.155 Y97.932 E-.10592
G1 X120.532 Y98.193 E-.10588
G1 X120.649 Y98.378 E-.05055
;WIPE_END
G1 Z.6 F720
G1 X118.809 Y112.23 F10800
G1 Z.2 F720
G1 E.8 F2100
M204 S800
;TYPE:Perimeter
G1 F1200
G1 X118.621 Y112.102 E.00713
G1 X118.282 Y111.603 E.01891
G1 X118.164 Y111.101 E.01617
G1 X118.225 Y110.588 E.0162
G1 X118.302 Y110.378 E.00701
G1 X118.585 Y109.945 E.01622
G1 X118.993 Y109.643 E.01592
G1 X119.172 Y109.568 E.00609
G1 X119.683 Y109.468 E.01633
G1 X120.222 Y109.561 E.01715
G1 X120.683 Y109.834 E.0168
G1 X120.844 Y109.991 E.00705
G1 X121.122 Y110.427 E.01621
G1 X121.233 Y110.958 E.01701
G1 X121.148 Y111.494 E.01702
G1 X121.06 Y111.701 E.00705
G1 X120.774 Y112.102 E.01544
G1 X120.36 Y112.384 E.01571
G1 X119.834 Y112.531 E.01712
G1 X119.624 Y112.533 E.00658
G1 X119.245 Y112.466 E.01207
G1 X119.036 Y112.385 E.00703
G1 X118.859 Y112.264 E.00672
M204 S1000
G1 X119.242 Y112.053 F10800
M204 S800
;TYPE:External perimeter
G1 F1200
G1 X118.887 Y111.834 E.01308
G1 X118.619 Y111.425 E.01533
G1 X118.541 Y111.025 E.01278
G1 X118.624 Y110.574 E.01438
G1 X118.876 Y110.191 E.01437
G1 X119.256 Y109.936 E.01435
G1 X119.706 Y109.848 E.01438
G1 X120.156 Y109.943 E.01442
G1 X120.532 Y110.203 E.01433
G1 X120.778 Y110.59 E.01438
G1 X120.854 Y111.042 E.01437
G1 X120.749 Y111.489 E.0144
G1 X120.479 Y111.859 E.01436
G1 X120.09 Y112.094 E.01425
G1 X119.689 Y112.162 E.01275
G1 X119.293 Y112.085 E.01265
M204 S1000
G1 X118.927 Y112.3 F10800
;WIPE_START
G1 F8640
G1 X118.887 Y111.834 E-.11022
G1 X118.619 Y111.425 E-.11291
G1 X118.541 Y111.025 E-.0941
G1 X118.624 Y110.574 E-.10589
G1 X118.876 Y110.191 E-.10586
G1 X119.256 Y109.936 E-.10567
G1 X119.706 Y109.848 E-.10587
G1 X119.958 Y109.901 E-.05948
;WIPE_END
G1 Z.6 F720
G1 X177.266 Y93.203 F10800
G1 Z.2 F720
M73 P1 R92
M73 Q1 S95
G1 E.8 F2100
M204 S800
;TYPE:Perimeter
G1 F1200
G1 X177.285 Y93.121 E.00264
G1 X177.285 Y91.187 E.06064
G1 X182.311 Y91.187 E.15759
G1 X182.311 Y93.73 E.07973
G1 X182.311 Y118.813 E.78646
G1 X177.285 Y118.813 E.15759
G1 X177.274 Y116.768 E.06412
G1 X177.157 Y116.521 E.00857
G1 X176.975 Y116.374 E.00734
G1 X176.719 Y116.313 E.00825
G1 X98.366 Y116.313 E2.4567
G1 X98.157 Y116.353 E.00667
G1 X97.957 Y116.488 E.00757
G1 X97.247 Y117.232 E.03225
G1 X96.694 Y117.764 E.02406
G1 X95.975 Y118.386 E.02981
G1 X95.37 Y118.862 E.02414
G1 X94.741 Y119.308 E.02418
G1 X93.944 Y119.822 E.02974
G1 X93.116 Y120.289 E.02981
G1 X92.431 Y120.636 E.02408
G1 X91.56 Y121.019 E.02983
G1 X90.842 Y121.296 E.02413
G1 X90.11 Y121.538 E.02417
G1 X89.196 Y121.796 E.02978
G1 X88.268 Y121.999 E.02978
G1 X87.511 Y122.129 E.02408
G1 X86.566 Y122.24 E.02983
G1 X85.799 Y122.294 E.02411
G1 X85.028 Y122.31 E.02418
G1 X84.079 Y122.288 E.02976
G1 X83.132 Y122.211 E.02979
G1 X82.37 Y122.112 E.02409
G1 X81.61 Y121.975 E.02421
G1 X80.684 Y121.766 E.02976
G1 X79.771 Y121.504 E.02978
G1 X79.044 Y121.257 E.02407
G1 X78.16 Y120.904 E.02985
G1 X77.461 Y120.586 E.02408
G1 X76.616 Y120.147 E.02986
G1 X75.952 Y119.762 E.02407
G1 X75.155 Y119.241 E.02985
G1 X74.532 Y118.791 E.0241
G1 X73.93 Y118.308 E.0242
G1 X73.215 Y117.684 E.02976
G1 X72.537 Y117.018 E.0298
G1 X72.016 Y116.454 E.02407
G1 X71.406 Y115.723 E.02985
G1 X70.944 Y115.11 E.02407
G1 X70.41 Y114.322 E.02985
G1 X70.011 Y113.667 E.02405
G1 X69.557 Y112.829 E.02988
G1 X69.226 Y112.139 E.02399
;WIDTH:0.459932
G1 X69.163 Y111.932 E.0075
;WIDTH:0.499865
G1 X69.099 Y111.725 E.00823
G1 X69.236 Y111.887 E.00806
;WIDTH:0.459932
G1 X69.373 Y112.048 E.00733
;WIDTH:0.419999
G1 X69.836 Y112.385 E.01796
G1 X70.045 Y112.466 E.00703
G1 X70.584 Y112.539 E.01705
G1 X71.023 Y112.442 E.0141
G1 X71.228 Y112.35 E.00705
G1 X71.611 Y112.065 E.01497
G1 X71.894 Y111.632 E.01622
G1 X71.97 Y111.422 E.007
G1 X72.025 Y110.859 E.01774
G1 X71.882 Y110.336 E.017
G1 X71.517 Y109.854 E.01896
G1 X71.031 Y109.564 E.01774
G1 X70.572 Y109.477 E.01465
G1 X70.224 Y109.507 E.01095
G1 X69.836 Y109.626 E.01272
G1 X69.417 Y109.912 E.01591
G1 X69.135 Y110.309 E.01527
G1 X69.048 Y110.515 E.00701
;WIDTH:0.459334
G1 X69.01 Y110.67 E.00553
;WIDTH:0.498668
G1 X68.971 Y110.824 E.00602
;WIDTH:0.538002
G1 X68.933 Y110.978 E.00653
;WIDTH:0.577336
G1 X68.895 Y111.133 E.00709
G1 X68.82 Y110.984 E.00741
;WIDTH:0.538002
G1 X68.745 Y110.835 E.00687
;WIDTH:0.498668
G1 X68.67 Y110.686 E.00632
;WIDTH:0.459334
G1 X68.595 Y110.538 E.00574
;WIDTH:0.419999
G1 X68.315 Y109.627 E.02988
G1 X68.127 Y108.883 E.02406
G1 X67.939 Y107.949 E.02987
G1 X67.825 Y107.191 E.02403
G1 X67.748 Y106.421 E.02426
G1 X67.692 Y105.474 E.02974
G1 X67.692 Y104.523 E.02982
G1 X67.73 Y103.758 E.02402
G1 X67.825 Y102.809 E.0299
G1 X67.939 Y102.051 E.02403
G1 X68.127 Y101.117 E.02987
G1 X68.315 Y100.373 E.02406
G1 X68.595 Y99.462 E.02988
G1 X68.794 Y98.915 E.01825
;WIDTH:0.462255
G1 X68.893 Y98.721 E.00759
;WIDTH:0.50451
G1 X68.992 Y98.528 E.00833
G1 X68.988 Y98.573 E.00173
;WIDTH:0.494937
G1 X68.984 Y98.878 E.01146
;WIDTH:0.457468
G1 X68.979 Y99.183 E.01051
;WIDTH:0.419999
G1 X69.055 Y99.479 E.00958
G1 X69.172 Y99.758 E.00949
G1 X69.438 Y100.106 E.01373
G1 X69.851 Y100.384 E.01561
G1 X70.424 Y100.523 E.01849
G1 X70.648 Y100.518 E.00703
G1 X71.149 Y100.387 E.01624
G1 X71.622 Y100.044 E.01832
G1 X71.942 Y99.523 E.01917
G1 X72.034 Y98.947 E.01829
G1 X71.921 Y98.434 E.01647
G1 X71.824 Y98.232 E.00703
G1 X71.458 Y97.798 E.0178
G1 X71.046 Y97.559 E.01493
G1 X70.572 Y97.467 E.01514
G1 X70.348 Y97.472 E.00703
G1 X69.972 Y97.558 E.01209
G1 X69.768 Y97.65 E.00702
;WIDTH:0.466915
G1 X69.593 Y97.768 E.00744
;WIDTH:0.513831
G1 X69.418 Y97.885 E.00824
;WIDTH:0.560746
G1 X69.243 Y98.002 E.00906
G1 X69.27 Y97.882 E.0053
;WIDTH:0.518259
G1 X69.362 Y97.634 E.01045
;WIDTH:0.469129
G1 X69.454 Y97.387 E.00934
;WIDTH:0.419999
G1 X69.791 Y96.739 E.0229
G1 X70.239 Y95.959 E.0282
G1 X70.653 Y95.32 E.02387
G1 X70.98 Y94.844 E.01811
G1 X71.688 Y93.939 E.03603
G1 X72.088 Y93.468 E.01937
G1 X72.806 Y92.718 E.03255
G1 X73.281 Y92.257 E.02075
G1 X73.855 Y91.754 E.02393
G1 X74.607 Y91.155 E.03014
G1 X75.228 Y90.711 E.02394
G1 X76.038 Y90.189 E.03021
G1 X76.701 Y89.809 E.02396
G1 X77.56 Y89.369 E.03026
G1 X78.255 Y89.058 E.02387
G1 X79.154 Y88.706 E.03027
G1 X79.874 Y88.467 E.02379
G1 X80.804 Y88.206 E.03029
G1 X81.543 Y88.039 E.02376
G1 X82.494 Y87.872 E.03027
G1 X83.244 Y87.78 E.02369
G1 X84.221 Y87.709 E.03071
G1 X85.133 Y87.692 E.0286
G1 X85.919 Y87.714 E.02465
G1 X86.677 Y87.773 E.02384
G1 X87.636 Y87.892 E.0303
G1 X88.375 Y88.024 E.02354
G1 X89.317 Y88.237 E.03028
G1 X90.039 Y88.442 E.02353
G1 X90.954 Y88.747 E.03024
G1 X91.651 Y89.021 E.02348
G1 X92.531 Y89.415 E.03023
G1 X93.197 Y89.757 E.02347
G1 X94.13 Y90.297 E.0338
G1 X94.662 Y90.64 E.01985
G1 X95.446 Y91.198 E.03017
G1 X96.034 Y91.666 E.02356
G1 X96.76 Y92.3 E.03022
G1 X98.091 Y93.616 E.05869
G1 X98.366 Y93.687 E.00891
G1 X176.719 Y93.687 E2.4567
G1 X176.797 Y93.682 E.00245
G1 X177.069 Y93.566 E.00927
G1 X177.229 Y93.366 E.00803
G1 X177.253 Y93.262 E.00335
M204 S1000
G1 X176.908 Y93.121 F10800
M204 S800
;TYPE:External perimeter
G1 F1200
G1 X176.908 Y90.81 E.07246
G1 X182.688 Y90.81 E.18123
G1 X182.688 Y119.19 E.88983
G1 X176.908 Y119.19 E.18123
G1 X176.908 Y116.879 E.07246
G1 X176.865 Y116.759 E.004
G1 X176.719 Y116.69 E.00506
G1 X98.366 Y116.69 E2.4567
G1 X98.229 Y116.748 E.00466
G1 X97.514 Y117.498 E.03249
G1 X96.949 Y118.043 E.02461
G1 X96.215 Y118.676 E.03039
G1 X95.596 Y119.164 E.02471
G1 X94.953 Y119.62 E.02472
G1 X94.139 Y120.145 E.03037
G1 X93.294 Y120.622 E.03042
G1 X92.592 Y120.977 E.02467
G1 X91.704 Y121.368 E.03042
G1 X90.969 Y121.652 E.02471
G1 X90.22 Y121.899 E.02473
G1 X89.288 Y122.162 E.03036
G1 X88.341 Y122.37 E.0304
G1 X87.565 Y122.503 E.02469
G1 X86.601 Y122.616 E.03043
G1 X85.816 Y122.671 E.02467
G1 X85.027 Y122.687 E.02474
G1 X84.059 Y122.665 E.03036
G1 X83.092 Y122.586 E.03042
G1 X82.312 Y122.485 E.02466
G1 X81.535 Y122.345 E.02475
G1 X80.59 Y122.132 E.03037
G1 X79.658 Y121.864 E.03041
G1 X78.914 Y121.611 E.02464
G1 X78.012 Y121.251 E.03045
G1 X77.296 Y120.925 E.02467
G1 X76.434 Y120.478 E.03045
G1 X75.754 Y120.083 E.02466
G1 X74.941 Y119.552 E.03045
G1 X74.304 Y119.091 E.02465
G1 X73.688 Y118.597 E.02476
G1 X72.959 Y117.961 E.03033
G1 X72.266 Y117.281 E.03044
G1 X71.733 Y116.703 E.02465
G1 X71.111 Y115.957 E.03045
G1 X70.638 Y115.33 E.02463
G1 X70.093 Y114.526 E.03045
G1 X69.684 Y113.855 E.02464
G1 X69.221 Y113 E.03049
G1 X68.881 Y112.292 E.02463
G1 X68.505 Y111.396 E.03047
G1 X68.237 Y110.657 E.02465
G1 X67.952 Y109.728 E.03047
G1 X67.759 Y108.967 E.02462
G1 X67.567 Y108.014 E.03048
G1 X67.45 Y107.238 E.02461
G1 X67.372 Y106.45 E.02483
