; generated by PrusaSlicer 2.7.2 on 2024-04-08 at 13:26:33 UTC


;
;
; 

; external perimeters extrusion width = 0.45mm
; perimeters extrusion width = 0.45mm
; infill extrusion width = 0.45mm
; solid infill extrusion width = 0.45mm
; top infill extrusion width = 0.40mm
; first layer extrusion width = 0.42mm

; external perimeters extrusion width = 0.45mm
; perimeters extrusion width = 0.45mm
; infill extrusion width = 0.45mm
; solid infill extrusion width = 0.45mm
; top infill extrusion width = 0.40mm
; first layer extrusion width = 0.42mm

; external perimeters extrusion width = 0.45mm
; perimeters extrusion width = 0.45mm
; infill extrusion width = 0.45mm
; solid infill extrusion width = 0.45mm
; top infill extrusion width = 0.40mm
; first layer extrusion width = 0.42mm

; external perimeters extrusion width = 0.45mm
; perimeters extrusion width = 0.45mm
; infill extrusion width = 0.45mm
; solid infill extrusion width = 0.45mm
; top infill extrusion width = 0.40mm
; first layer extrusion width = 0.42mm

M73 P0 R11
M73 Q0 S11
M201 X1000 Y1000 Z200 E5000 ; sets maximum accelerations, mm/sec^2
M203 X200 Y200 Z12 E120 ; sets maximum feedrates, mm / sec
M204 S1250 T1250 ; sets acceleration (S) and retract acceleration (R), mm/sec^2
M205 X8.00 Y8.00 Z0.40 E4.50 ; sets the jerk limits, mm/sec
M205 S0 T0 ; sets the minimum extruding and travel feed rate, mm/sec

; printing object ARM-End-Effector-Joint-Body.stl id:0 copy 0
; stop printing object ARM-End-Effector-Joint-Body.stl id:0 copy 0
; printing object ARM-End-Effector-Joint-Body.stl id:2 copy 0
; stop printing object ARM-End-Effector-Joint-Body.stl id:2 copy 0
; printing object ARM-End-Effector-Joint-Body.stl id:3 copy 0
; stop printing object ARM-End-Effector-Joint-Body.stl id:3 copy 0
; printing object ARM-End-Effector-Joint-Body.stl id:1 copy 0
; stop printing object ARM-End-Effector-Joint-Body.stl id:1 copy 0

;TYPE:Custom
M862.3 P "MK3" ; printer model check
M862.1 P0.4 ; nozzle diameter check
M115 U3.13.2 ; tell printer latest fw version
G90 ; use absolute coordinates
M83 ; extruder relative mode
M104 S215 ; set extruder temp
M140 S60 ; set bed temp
M190 S60 ; wait for bed temp
M109 S215 ; wait for extruder temp
G28 W ; home all without mesh bed level
G80 X118.072 Y96.2801 W29.2131 H30.2631 ; mesh bed levelling

G1 Z0.2 F720
G1 Y-3 F1000 ; go outside print area
G92 E0
G1 X60 E9 F1000 ; intro line
G1 X100 E12.5 F1000 ; intro line

G92 E0
M221 S95

; Don't change E values below. Excessive value can damage the printer.
M907 E430 ; set extruder motor current
G21 ; set units to millimeters
G90 ; use absolute coordinates
M83 ; use relative distances for extrusion

M900 K0.05 ; Filament gcode LA 1.5
M900 K30 ; Filament gcode LA 1.0




M107
;LAYER_CHANGE
;Z:0.2
;HEIGHT:0.2
G1 E-.8 F2100
G1 Z.6 F720
G1 X119.846 Y98.905 F10800
G1 Z.2 F720
M73 P1 R11
M73 Q1 S11
G1 E.8 F2100
M204 S800
;TYPE:Skirt/Brim
;WIDTH:0.42
G1 F1200
G1 X120.371 Y98.322 E.0246
G1 X121.433 Y97.476 E.04257
G1 X122.546 Y96.915 E.03908
G1 X123.195 Y96.692 E.02152
G1 X124.535 Y96.469 E.04259
G1 X125.369 Y96.469 E.02615
G1 X141.558 Y96.816 E.50771
G1 X142.872 Y97.157 E.04256
G1 X144.087 Y97.763 E.04257
G1 X145.149 Y98.61 E.04259
G1 X146.012 Y99.658 E.04257
G1 X146.638 Y100.863 E.04258
G1 X146.88 Y101.609 E.02459
G1 X147.096 Y103.306 E.05364
G1 X146.681 Y120.159 E.52857
G1 X146.479 Y121.502 E.04258
G1 X146.237 Y122.247 E.02456
G1 X145.647 Y123.39 E.04033
G1 X144.748 Y124.501 E.04481
G1 X143.686 Y125.347 E.04257
G1 X142.471 Y125.954 E.04259
G1 X141.923 Y126.131 E.01806
G1 X140.584 Y126.355 E.04257
G1 X124.369 Y126.337 E.50841
G1 X123.033 Y126.113 E.04247
G1 X122.485 Y125.936 E.01806
G1 X121.27 Y125.329 E.04259
G1 X120.208 Y124.483 E.04257
G1 X119.345 Y123.434 E.04259
G1 X118.719 Y122.229 E.04258
G1 X118.477 Y121.484 E.02456
G1 X118.26 Y119.827 E.0524
G1 X118.423 Y102.926 E.52994
G1 X118.639 Y101.321 E.05078
G1 X119.116 Y100.05 E.04257
G1 X119.814 Y98.956 E.04069
M204 S1000
G1 X119.814 Y98.956 F10800
G1 X120.126 Y99.157
M204 S800
G1 F1200
G1 X120.651 Y98.575 E.02458
G1 X121.655 Y97.782 E.04011
G1 X122.801 Y97.214 E.0401
G1 X123.274 Y97.061 E.01559
G1 X124.535 Y96.846 E.04011
G1 X125.362 Y96.846 E.02593
G1 X141.479 Y97.185 E.50545
G1 X142.719 Y97.501 E.04012
M73 P2 R11
M73 Q2 S11
G1 X143.865 Y98.069 E.0401
G1 X144.869 Y98.862 E.04011
G1 X145.685 Y99.847 E.04011
G1 X146.279 Y100.979 E.04008
G1 X146.522 Y101.725 E.0246
G1 X146.719 Y103.297 E.04967
G1 X146.306 Y120.119 E.5276
G1 X146.121 Y121.385 E.04012
G1 X145.676 Y122.585 E.04013
G1 X145.284 Y123.264 E.02458
G1 X144.468 Y124.248 E.04008
G1 X143.464 Y125.042 E.04013
G1 X142.318 Y125.609 E.04009
G1 X141.845 Y125.763 E.0156
G1 X140.584 Y125.978 E.04011
G1 X124.369 Y125.96 E.50841
G1 X123.111 Y125.745 E.04002
G1 X122.639 Y125.591 E.01557
M73 P2 R10
G1 X121.492 Y125.024 E.04012
G1 X120.488 Y124.23 E.04013
G1 X119.672 Y123.246 E.04008
G1 X119.28 Y122.567 E.02458
G1 X118.835 Y121.367 E.04013
G1 X118.637 Y119.83 E.04859
G1 X118.8 Y102.929 E.52994
G1 X118.998 Y101.438 E.04716
G1 X119.442 Y100.238 E.04012
G1 X120.094 Y99.208 E.03822
M204 S1000
; printing object ARM-End-Effector-Joint-Body.stl id:0 copy 0
;WIPE_START
G1 F8640
G1 X120.126 Y99.157 E-.0139
G1 X120.651 Y98.575 E-.18098
G1 X121.655 Y97.782 E-.29542
G1 X122.801 Y97.214 E-.29533
G1 X122.86 Y97.195 E-.01437
;WIPE_END
G1 Z.6 F720
G1 X127.591 Y101.793 F10800
G1 Z.2 F720
G1 E.8 F2100
M204 S800
;TYPE:Perimeter
;WIDTH:0.520129
G1 F1200
G1 X127.777 Y102.389 E.02477
;WIDTH:0.516884
G1 X127.835 Y102.977 E.02329
;WIDTH:0.515617
G1 X127.825 Y103.079 E.00403
;WIDTH:0.513344
G1 X127.723 Y103.722 E.02547
;WIDTH:0.51453
G1 X127.539 Y104.218 E.02075
;WIDTH:0.521856
G1 X127.262 Y104.68 E.02145
;WIDTH:0.522201
G1 X126.852 Y105.128 E.0242
G1 X126.358 Y105.481 E.0242
;WIDTH:0.521166
G1 X125.801 Y105.724 E.02417
;WIDTH:0.518747
G1 X125.146 Y105.847 E.02637
;WIDTH:0.514943
G1 X124.482 Y105.819 E.02608
;WIDTH:0.516138
G1 X123.978 Y105.698 E.0204
;WIDTH:0.521167
G1 X123.452 Y105.456 E.02302
;WIDTH:0.522202
G1 X122.965 Y105.094 E.02418
G1 X122.562 Y104.639 E.02422
;WIDTH:0.521856
G1 X122.262 Y104.111 E.02418
;WIDTH:0.520131
G1 X122.076 Y103.516 E.02474
;WIDTH:0.516883
G1 X122.028 Y102.825 E.0273
;WIDTH:0.513346
G1 X122.131 Y102.183 E.02543
;WIDTH:0.51453
G1 X122.315 Y101.686 E.02078
;WIDTH:0.521856
G1 X122.591 Y101.225 E.0214
;WIDTH:0.522201
G1 X123.002 Y100.777 E.02423
G1 X123.496 Y100.424 E.0242
;WIDTH:0.521167
G1 X124.052 Y100.18 E.02415
;WIDTH:0.518748
G1 X124.707 Y100.057 E.02637
;WIDTH:0.514943
G1 X125.371 Y100.086 E.02609
;WIDTH:0.515958
G1 X125.872 Y100.206 E.02026
;WIDTH:0.521121
G1 X126.401 Y100.449 E.02315
;WIDTH:0.5222
G1 X126.889 Y100.81 E.02419
G1 X127.291 Y101.265 E.0242
;WIDTH:0.521856
G1 X127.562 Y101.741 E.02181
M204 S1000
G1 X127.562 Y101.741 F10800
G1 X127.997 Y101.661
M204 S800
;TYPE:External perimeter
;WIDTH:0.419999
G1 F1200
G1 X128.2 Y102.344 E.02234
G1 X128.257 Y103.021 E.0213
G1 X128.191 Y103.646 E.01971
G1 X127.976 Y104.31 E.02188
G1 X127.627 Y104.914 E.02187
G1 X127.16 Y105.433 E.02189
G1 X126.596 Y105.843 E.02186
G1 X125.958 Y106.127 E.0219
G1 X125.276 Y106.272 E.02186
G1 X124.578 Y106.272 E.02189
G1 X123.895 Y106.127 E.02189
G1 X123.258 Y105.843 E.02187
G1 X122.693 Y105.433 E.02189
G1 X122.226 Y104.914 E.02189
G1 X121.877 Y104.31 E.02187
G1 X121.662 Y103.646 E.02188
G1 X121.589 Y102.952 E.02188
G1 X121.662 Y102.258 E.02188
G1 X121.877 Y101.595 E.02185
G1 X122.226 Y100.99 E.0219
G1 X122.693 Y100.472 E.02187
G1 X123.258 Y100.062 E.02189
G1 X123.895 Y99.778 E.02187
G1 X124.578 Y99.633 E.02189
G1 X125.276 Y99.633 E.02189
G1 X125.953 Y99.777 E.0217
G1 X126.531 Y100.033 E.01982
G1 X126.743 Y100.169 E.0079
G1 X127.207 Y100.524 E.01832
G1 X127.662 Y101.051 E.02183
G1 X127.969 Y101.609 E.01997
M204 S1000
;WIPE_START
G1 F8640
G1 X127.997 Y101.661 E-.01364
G1 X128.2 Y102.344 E-.16452
G1 X128.257 Y103.021 E-.15687
G1 X128.191 Y103.646 E-.14512
G1 X127.976 Y104.31 E-.16116
G1 X127.632 Y104.905 E-.15869
;WIPE_END
G1 Z.6 F720
G1 X122.566 Y103.481 F10800
M73 Q3 S11
G1 Z.2 F720
M73 P3 R10
G1 E.8 F2100
M204 S800
;TYPE:Perimeter
;WIDTH:0.513346
G1 F1200
G1 X122.496 Y103.026 E.01801
;WIDTH:0.516884
G1 X122.547 Y102.442 E.0231
;WIDTH:0.520131
G1 X122.712 Y101.952 E.02052
;WIDTH:0.521856
G1 X122.966 Y101.521 E.01992
;WIDTH:0.522201
G1 X123.302 Y101.15 E.01995
G1 X123.704 Y100.854 E.0199
;WIDTH:0.521167
G1 X124.159 Y100.644 E.01993
;WIDTH:0.518748
G1 X124.664 Y100.53 E.02048
;WIDTH:0.515988
G1 X125.189 Y100.53 E.02065
;WIDTH:0.518675
G1 X125.69 Y100.643 E.02032
;WIDTH:0.521121
G1 X126.15 Y100.854 E.02012
;WIDTH:0.5222
G1 X126.552 Y101.15 E.0199
G1 X126.887 Y101.521 E.01992
;WIDTH:0.521856
G1 X127.141 Y101.952 E.01992
;WIDTH:0.520129
G1 X127.305 Y102.43 E.02005
;WIDTH:0.51709
G1 X127.363 Y102.952 E.02071
;WIDTH:0.516884
G1 X127.306 Y103.463 E.02026
;WIDTH:0.52013
G1 X127.141 Y103.953 E.02052
;WIDTH:0.521856
G1 X126.887 Y104.384 E.01992
;WIDTH:0.522201
G1 X126.552 Y104.754 E.01989
G1 X126.149 Y105.05 E.01993
;WIDTH:0.521166
G1 X125.695 Y105.26 E.01989
;WIDTH:0.518747
G1 X125.189 Y105.374 E.02052
;WIDTH:0.515988
G1 X124.664 Y105.374 E.02065
;WIDTH:0.518747
G1 X124.133 Y105.253 E.02155
;WIDTH:0.516405
G1 X123.607 Y104.995 E.02307
;WIDTH:0.513007
G1 X123.157 Y104.619 E.02292
;WIDTH:0.51101
G1 X122.81 Y104.146 E.02283
;WIDTH:0.511184
G1 X122.585 Y103.605 E.02281
;WIDTH:0.513346
G1 X122.575 Y103.54 E.00257
M204 S1000
G1 X122.575 Y103.54 F10800
G1 X123.015 Y103.537
M204 S800
;TYPE:External perimeter
;WIDTH:0.419999
G1 F1200
G1 X122.969 Y103.411 E.00421
G1 X122.916 Y102.93 E.01517
G1 X122.98 Y102.449 E.01521
G1 X123.157 Y101.998 E.01519
G1 X123.437 Y101.602 E.01521
G1 X123.803 Y101.285 E.01518
G1 X124.261 Y101.058 E.01603
G1 X124.707 Y100.954 E.01436
G1 X125.192 Y100.959 E.01521
G1 X125.661 Y101.081 E.01519
G1 X126.087 Y101.311 E.01518
G1 X126.446 Y101.636 E.01518
G1 X126.742 Y102.103 E.01734
G1 X126.884 Y102.493 E.01301
G1 X126.937 Y102.975 E.0152
G1 X126.873 Y103.455 E.01518
G1 X126.696 Y103.907 E.01522
G1 X126.416 Y104.302 E.01518
G1 X126.05 Y104.62 E.0152
G1 X125.593 Y104.846 E.01599
G1 X125.146 Y104.951 E.0144
G1 X124.662 Y104.945 E.01518
G1 X124.235 Y104.84 E.01379
G1 X123.78 Y104.605 E.01606
G1 X123.407 Y104.268 E.01576
G1 X123.112 Y103.801 E.01732
G1 X123.036 Y103.593 E.00694
M204 S1000
; stop printing object ARM-End-Effector-Joint-Body.stl id:0 copy 0
; printing object ARM-End-Effector-Joint-Body.stl id:2 copy 0
;WIPE_START
G1 F8640
G1 X123.015 Y103.537 E-.01381
G1 X122.969 Y103.411 E-.03097
G1 X122.916 Y102.93 E-.11174
G1 X122.98 Y102.449 E-.11204
G1 X123.157 Y101.998 E-.11187
G1 X123.437 Y101.602 E-.11199
G1 X123.803 Y101.285 E-.1118
G1 X124.261 Y101.058 E-.11803
G1 X124.589 Y100.981 E-.07775
;WIPE_END
G1 Z.6 F720
G1 X143.257 Y102.08 F10800
G1 Z.2 F720
G1 E.8 F2100
M204 S800
;TYPE:Perimeter
;WIDTH:0.520129
G1 F1200
G1 X143.444 Y102.676 E.02479
;WIDTH:0.516884
G1 X143.501 Y103.264 E.02328
;WIDTH:0.515617
G1 X143.491 Y103.366 E.00403
;WIDTH:0.513344
G1 X143.389 Y104.009 E.02547
;WIDTH:0.51453
G1 X143.205 Y104.505 E.02075
;WIDTH:0.521856
G1 X142.928 Y104.967 E.02145
;WIDTH:0.522201
G1 X142.518 Y105.415 E.0242
G1 X142.024 Y105.768 E.0242
;WIDTH:0.521166
G1 X141.467 Y106.011 E.02417
;WIDTH:0.518747
G1 X140.813 Y106.134 E.02633
;WIDTH:0.514943
G1 X140.149 Y106.106 E.02608
;WIDTH:0.516138
G1 X139.644 Y105.985 E.02043
;WIDTH:0.521167
G1 X139.119 Y105.743 E.02299
;WIDTH:0.522202
G1 X138.631 Y105.381 E.02421
G1 X138.228 Y104.926 E.02422
;WIDTH:0.521856
G1 X137.928 Y104.398 E.02418
;WIDTH:0.520131
G1 X137.742 Y103.803 E.02474
;WIDTH:0.516883
G1 X137.695 Y103.112 E.0273
;WIDTH:0.513346
G1 X137.797 Y102.47 E.02543
;WIDTH:0.51453
G1 X137.981 Y101.973 E.02078
;WIDTH:0.521856
G1 X138.258 Y101.512 E.02142
;WIDTH:0.522201
G1 X138.668 Y101.064 E.0242
G1 X139.162 Y100.711 E.0242
;WIDTH:0.521167
G1 X139.718 Y100.467 E.02415
;WIDTH:0.518748
G1 X140.373 Y100.344 E.02637
;WIDTH:0.514943
G1 X141.037 Y100.373 E.02609
;WIDTH:0.515958
G1 X141.539 Y100.493 E.0203
;WIDTH:0.521121
G1 X142.068 Y100.736 E.02315
;WIDTH:0.5222
G1 X142.555 Y101.097 E.02416
G1 X142.958 Y101.552 E.02422
;WIDTH:0.521856
G1 X143.228 Y102.028 E.02179
M204 S1000
G1 X143.228 Y102.028 F10800
G1 X143.664 Y101.948
M204 S800
;TYPE:External perimeter
;WIDTH:0.419999
G1 F1200
G1 X143.867 Y102.631 E.02234
G1 X143.923 Y103.308 E.0213
G1 X143.858 Y103.933 E.0197
G1 X143.642 Y104.597 E.02189
G1 X143.293 Y105.201 E.02187
G1 X142.826 Y105.72 E.02189
G1 X142.262 Y106.13 E.02186
G1 X141.624 Y106.414 E.0219
G1 X140.942 Y106.559 E.02186
G1 X140.244 Y106.559 E.02189
G1 X139.562 Y106.414 E.02186
G1 X138.924 Y106.13 E.0219
G1 X138.36 Y105.72 E.02186
G1 X137.893 Y105.201 E.02189
G1 X137.544 Y104.597 E.02187
G1 X137.328 Y103.933 E.02189
G1 X137.255 Y103.239 E.02188
G1 X137.328 Y102.545 E.02188
G1 X137.544 Y101.882 E.02186
G1 X137.893 Y101.277 E.0219
G1 X138.36 Y100.759 E.02187
G1 X138.924 Y100.349 E.02186
G1 X139.562 Y100.065 E.0219
G1 X140.244 Y99.92 E.02186
G1 X140.942 Y99.92 E.02189
G1 X141.619 Y100.064 E.0217
G1 X142.197 Y100.32 E.01982
G1 X142.409 Y100.456 E.0079
G1 X142.873 Y100.811 E.01832
G1 X143.328 Y101.338 E.02183
G1 X143.635 Y101.896 E.01997
M204 S1000
;WIPE_START
G1 F8640
G1 X143.664 Y101.948 E-.01375
G1 X143.867 Y102.631 E-.16452
G1 X143.923 Y103.308 E-.15686
G1 X143.858 Y103.933 E-.14509
G1 X143.642 Y104.597 E-.16123
G1 X143.299 Y105.192 E-.15855
;WIPE_END
G1 Z.6 F720
G1 X138.232 Y103.768 F10800
G1 Z.2 F720
G1 E.8 F2100
M204 S800
;TYPE:Perimeter
;WIDTH:0.513346
G1 F1200
G1 X138.162 Y103.313 E.01801
;WIDTH:0.516884
G1 X138.213 Y102.729 E.0231
;WIDTH:0.520131
G1 X138.378 Y102.239 E.02052
;WIDTH:0.521856
G1 X138.633 Y101.808 E.01994
;WIDTH:0.522201
G1 X138.968 Y101.437 E.01992
G1 X139.37 Y101.141 E.0199
;WIDTH:0.521167
G1 X139.825 Y100.931 E.01993
;WIDTH:0.518748
G1 X140.33 Y100.817 E.02048
;WIDTH:0.515988
G1 X140.856 Y100.817 E.02069
;WIDTH:0.518675
G1 X141.357 Y100.93 E.02032
;WIDTH:0.521121
G1 X141.816 Y101.141 E.02009
;WIDTH:0.5222
G1 X142.218 Y101.437 E.0199
G1 X142.553 Y101.808 E.01992
;WIDTH:0.521856
G1 X142.807 Y102.239 E.01992
;WIDTH:0.520129
G1 X142.971 Y102.717 E.02005
;WIDTH:0.51709
G1 X143.029 Y103.239 E.02071
;WIDTH:0.516884
G1 X142.973 Y103.75 E.02026
;WIDTH:0.52013
G1 X142.807 Y104.24 E.02053
;WIDTH:0.521856
G1 X142.553 Y104.671 E.01992
;WIDTH:0.522201
G1 X142.218 Y105.041 E.01989
G1 X141.815 Y105.337 E.01993
;WIDTH:0.521166
G1 X141.361 Y105.547 E.01989
;WIDTH:0.518747
G1 X140.856 Y105.661 E.02048
;WIDTH:0.515988
G1 X140.33 Y105.661 E.02069
;WIDTH:0.518747
G1 X139.8 Y105.54 E.02151
;WIDTH:0.516405
G1 X139.273 Y105.282 E.0231
;WIDTH:0.513007
G1 X138.823 Y104.906 E.02292
;WIDTH:0.51101
G1 X138.476 Y104.433 E.02283
;WIDTH:0.511184
G1 X138.251 Y103.892 E.02281
;WIDTH:0.513346
G1 X138.241 Y103.827 E.00257
M204 S1000
G1 X138.241 Y103.827 F10800
G1 X138.681 Y103.824
M204 S800
;TYPE:External perimeter
;WIDTH:0.419999
G1 F1200
G1 X138.636 Y103.698 E.0042
G1 X138.583 Y103.217 E.01517
G1 X138.647 Y102.736 E.01521
G1 X138.824 Y102.285 E.01519
G1 X139.103 Y101.889 E.01519
G1 X139.47 Y101.572 E.01521
G1 X139.927 Y101.345 E.016
G1 X140.373 Y101.241 E.01436
G1 X140.858 Y101.246 E.01521
G1 X141.327 Y101.368 E.01519
G1 X141.754 Y101.598 E.01521
G1 X142.113 Y101.923 E.01518
G1 X142.408 Y102.39 E.01732
G1 X142.55 Y102.78 E.01301
G1 X142.603 Y103.262 E.0152
G1 X142.539 Y103.742 E.01518
G1 X142.362 Y104.194 E.01522
G1 X142.083 Y104.589 E.01516
G1 X141.716 Y104.907 E.01523
G1 X141.259 Y105.133 E.01599
G1 X140.813 Y105.238 E.01437
G1 X140.328 Y105.232 E.01521
G1 X139.901 Y105.127 E.01379
G1 X139.446 Y104.892 E.01606
G1 X139.073 Y104.555 E.01576
G1 X138.778 Y104.088 E.01732
G1 X138.702 Y103.88 E.00694
M204 S1000
; stop printing object ARM-End-Effector-Joint-Body.stl id:2 copy 0
; printing object ARM-End-Effector-Joint-Body.stl id:3 copy 0
;WIPE_START
G1 F8640
G1 X138.681 Y103.824 E-.01381
G1 X138.636 Y103.698 E-.03089
G1 X138.583 Y103.217 E-.11174
G1 X138.647 Y102.736 E-.11204
G1 X138.824 Y102.285 E-.11187
G1 X139.103 Y101.889 E-.11185
G1 X139.47 Y101.572 E-.11198
