; generated by PrusaSlicer 2.6.1 on 2023-12-18 at 14:17:24 UTC


;
;

;
;
; 

; external perimeters extrusion width = 0.45mm
; perimeters extrusion width = 0.45mm
; infill extrusion width = 0.45mm
; solid infill extrusion width = 0.45mm
; top infill extrusion width = 0.40mm
; first layer extrusion width = 0.42mm

M73 P0 R42
M201 X2500 Y2500 Z400 E5000 ; sets maximum accelerations, mm/sec^2
M203 X180 Y180 Z12 E80 ; sets maximum feedrates, mm / sec
M204 P2000 R1250 T2500 ; sets acceleration (P, T) and retract acceleration (R), mm/sec^2
M205 X8.00 Y8.00 Z2.00 E10.00 ; sets the jerk limits, mm/sec
M205 S0 T0 ; sets the minimum extruding and travel feed rate, mm/sec
;TYPE:Custom
M862.3 P "MINI" ; printer model check
G90 ; use absolute coordinates
M83 ; extruder relative mode
M104 S170 ; set extruder temp for bed leveling
M140 S75 ; set bed temp
M109 R170 ; wait for bed leveling temp
M190 S75 ; wait for bed temp
M204 T1250 ; set travel acceleration
G28 ; home all without mesh bed level
G29 ; mesh bed leveling 
M204 T2500 ; restore travel acceleration
M104 S215 ; set extruder temp
G92 E0
G1 Y-2 X179 F2400
G1 Z3 F720
M109 S215 ; wait for extruder temp

; intro line
G1 X170 F1000
G1 Z0.2 F720
G1 X110 E8 F900
G1 X40 E10 F700
G92 E0

M221 S95 ; set flow
G21 ; set units to millimeters
G90 ; use absolute coordinates
M83 ; use relative distances for extrusion
M900 K0.2 ; Filament gcode LA 1.5
; ; Filament gcode LA 1.0
M107
;LAYER_CHANGE
;Z:0.2
;HEIGHT:0.2
;BEFORE_LAYER_CHANGE
G92 E0.0
;0.2


G1 E-3.2 F4200
G1 Z.2 F720
;AFTER_LAYER_CHANGE
;0.2
G1 Z.4
G1 X73.11 Y73.564 F9000
G1 Z.2 F720
G1 E3.2 F2400
M204 P600
;TYPE:Skirt/Brim
;WIDTH:0.42
G1 F1200
G1 X74.155 Y72.688 E.04275
G1 X75.095 Y72.494 E.03009
G1 X107.195 Y72.494 E1.00647
G1 X108.502 Y72.886 E.04278
G1 X109.379 Y73.932 E.0428
G1 X109.572 Y74.871 E.03006
G1 X109.572 Y106.871 E1.00334
G1 X109.181 Y108.178 E.04277
G1 X108.135 Y109.055 E.0428
G1 X107.195 Y109.248 E.03009
G1 X75.095 Y109.248 E1.00647
G1 X73.788 Y108.857 E.04277
G1 X72.912 Y107.811 E.04278
G1 X72.718 Y106.871 E.03009
G1 X72.718 Y74.871 E1.00334
G1 X73.092 Y73.622 E.04088
M204 P1000
; printing object ARM-End-Arm-Body.stl id:0 copy 0
G1 E-2.24 F4200
;WIPE_START
G1 F7200
G1 X74.155 Y72.688 E-.78417
G1 X74.466 Y72.624 E-.17583
;WIPE_END
G1 Z.4 F720
G1 X105.995 Y78.9 F9000
G1 Z.2 F720
G1 E3.2 F2400
M204 P600
;TYPE:Perimeter
;WIDTH:0.445842
G1 F1200
G1 X105.417 Y78.334 E.0271
;WIDTH:0.419999
G1 X99.493 Y78.334 E.18574
;WIDTH:0.466698
G1 X99.384 Y78.311 E.00393
;WIDTH:0.513397
G1 X99.275 Y78.288 E.00436
;WIDTH:0.560096
G1 X99.166 Y78.264 E.0048
;WIDTH:0.606794
G1 X99.058 Y78.241 E.00518
G1 X99.157 Y78.192 E.00518
;WIDTH:0.560096
G1 X99.257 Y78.143 E.00479
;WIDTH:0.513397
G1 X99.357 Y78.094 E.00436
;WIDTH:0.466698
G1 X99.457 Y78.044 E.00394
;WIDTH:0.419999
G1 X99.922 Y77.755 E.01717
G1 X100.07 Y77.596 E.00681
G1 X100.272 Y77.271 E.012
G1 X100.353 Y77.045 E.00753
G1 X100.393 Y76.709 E.01061
G1 X100.332 Y76.292 E.01321
G1 X100.182 Y75.992 E.01052
G1 X100.832 Y76.05 E.02046
G1 X106.008 Y76.058 E.16229
G1 X106.008 Y77.195 E.03565
G1 X106.008 Y77.743 E.01718
;WIDTH:0.445842
G1 X105.996 Y78.84 E.03676
M204 P1000
G1 E-2.24 F4200
;WIPE_START
G1 F7200
G1 X105.417 Y78.334 E-.42612
G1 X104.454 Y78.334 E-.53388
;WIPE_END
G1 Z.4 F720
G1 X98.808 Y75.574 F9000
G1 Z.2 F720
G1 E3.2 F2400
M204 P600
;TYPE:External perimeter
;WIDTH:0.63517
G1 F1200
M73 P1 R42
G1 X99.029 Y75.589 E.01091
;WIDTH:0.665256
G1 X99.249 Y75.604 E.01141
M204 P1000
G1 E-2.24 F4200
;WIPE_START
G1 F7200
G1 X99.029 Y75.589 E-.1222
G1 X98.808 Y75.574 E-.12275
;WIPE_END
G1 E-.71505 F4200
G1 Z.4 F720
G1 X100.299 Y105.526 F9000
G1 Z.2 F720
G1 E3.2 F2400
M204 P600
;TYPE:Perimeter
;WIDTH:0.419999
G1 F1200
G1 X100.358 Y105.356 E.00564
G1 X100.393 Y105.079 E.00875
G1 X100.303 Y104.548 E.01689
G1 X100.202 Y104.336 E.00736
G1 X99.883 Y103.944 E.01585
G1 X99.453 Y103.697 E.01555
G1 X99.253 Y103.632 E.00659
G1 X98.749 Y103.594 E.01585
G1 X98.264 Y103.721 E.01572
G1 X97.799 Y104.046 E.01779
G1 X97.518 Y104.472 E.016
G1 X97.437 Y104.703 E.00768
G1 X97.398 Y105.034 E.01045
G1 X97.458 Y105.451 E.01321
G1 X97.613 Y105.758 E.01078
G1 X97.003 Y105.71 E.01919
G1 X96.362 Y105.685 E.02011
G1 X76.282 Y105.684 E.62959
G1 X76.282 Y76.058 E.9289
G1 X96.316 Y76.058 E.62815
G1 X97.105 Y76.029 E.02476
G1 X97.617 Y75.984 E.01612
G1 X97.493 Y76.196 E.0077
G1 X97.397 Y76.664 E.01498
G1 X97.487 Y77.195 E.01689
G1 X97.589 Y77.406 E.00735
G1 X97.823 Y77.71 E.01203
G1 X98 Y77.861 E.00729
;WIDTH:0.464882
G1 X98.104 Y77.933 E.00444
;WIDTH:0.509764
G1 X98.209 Y78.006 E.00496
;WIDTH:0.554646
G1 X98.314 Y78.078 E.00542
;WIDTH:0.599528
G1 X98.419 Y78.15 E.00589
;WIDTH:0.64441
G1 X98.524 Y78.222 E.00637
G1 X98.437 Y78.247 E.00453
;WIDTH:0.595117
G1 X98.35 Y78.271 E.00414
;WIDTH:0.545824
G1 X98.264 Y78.296 E.00375
;WIDTH:0.49653
G1 X98.071 Y78.315 E.00731
;WIDTH:0.458265
G1 X97.879 Y78.334 E.00666
;WIDTH:0.419999
G1 X92.374 Y78.334 E.17261
G1 X92.108 Y78.401 E.0086
G1 X91.921 Y78.56 E.0077
G1 X91.831 Y78.741 E.00634
G1 X91.808 Y78.9 E.00504
G1 X91.808 Y94.043 E.4748
G1 X91.811 Y94.102 E.00185
G1 X91.91 Y94.366 E.00884
G1 X92.098 Y94.536 E.00795
G1 X92.374 Y94.608 E.00894
G1 X105.417 Y94.608 E.40895
;WIDTH:0.454608
G1 X105.991 Y94.143 E.02529
M73 P1 R41
G1 X106.008 Y95.2 E.03619
;WIDTH:0.419999
G1 X106.008 Y105.685 E.32875
G1 X100.785 Y105.694 E.16376
G1 X100.222 Y105.745 E.01772
G1 X100.279 Y105.582 E.00541
M204 P1000
G1 X99.594 Y105.809 F9000
M204 P600
;TYPE:External perimeter
;WIDTH:0.445072
G1 F1200
G1 X99.739 Y105.714 E.0058
;WIDTH:0.419999
G1 X99.959 Y105.379 E.01257
G1 X100.019 Y105.031 E.01107
G1 X99.937 Y104.637 E.01262
G1 X99.669 Y104.263 E.01443
G1 X99.272 Y104.028 E.01446
G1 X98.87 Y103.964 E.01276
G1 X98.427 Y104.064 E.01424
G1 X98.09 Y104.292 E.01276
G1 X97.839 Y104.671 E.01425
G1 X97.772 Y105.078 E.01293
G1 X97.826 Y105.368 E.00925
G1 X98.054 Y105.716 E.01304
;WIDTH:0.469051
G1 X98.151 Y105.8 E.00455
;WIDTH:0.518103
G1 X98.249 Y105.885 E.00513
;WIDTH:0.567155
G1 X98.346 Y105.969 E.00559
;WIDTH:0.616207
G1 X98.444 Y106.054 E.00618
;WIDTH:0.665258
G1 X98.541 Y106.139 E.00667
G1 X98.482 Y106.155 E.00316
;WIDTH:0.631275
G1 X98.424 Y106.172 E.00296
;WIDTH:0.597292
G1 X98.365 Y106.189 E.00283
;WIDTH:0.563308
G1 X98.133 Y106.175 E.01006
;WIDTH:0.515539
G1 X97.9 Y106.162 E.00917
;WIDTH:0.467769
G1 X97.668 Y106.149 E.00821
;WIDTH:0.419999
G1 X96.988 Y106.087 E.02141
G1 X96.362 Y106.062 E.01964
G1 X75.905 Y106.061 E.64141
G1 X75.905 Y75.681 E.95254
G1 X96.316 Y75.681 E.63997
G1 X97.388 Y75.639 E.03364
G1 X98.35 Y75.484 E.03055
;WIDTH:0.463784
G1 X98.459 Y75.505 E.00388
;WIDTH:0.507569
G1 X98.568 Y75.526 E.00429
;WIDTH:0.551354
G1 X98.678 Y75.548 E.00474
;WIDTH:0.595139
G1 X98.787 Y75.569 E.0051
G1 X98.694 Y75.622 E.00492
;WIDTH:0.547576
G1 X98.602 Y75.675 E.00446
;WIDTH:0.500013
G1 X98.51 Y75.728 E.00404
;WIDTH:0.452449
G1 X98.052 Y76.028 E.01864
;WIDTH:0.419999
G1 X97.831 Y76.363 E.01258
G1 X97.771 Y76.712 E.0111
G1 X97.854 Y77.106 E.01262
G1 X98.122 Y77.48 E.01443
G1 X98.518 Y77.715 E.01444
G1 X98.92 Y77.779 E.01276
G1 X99.363 Y77.679 E.01424
G1 X99.701 Y77.45 E.0128
G1 X99.952 Y77.072 E.01423
G1 X100.018 Y76.664 E.01296
G1 X99.964 Y76.374 E.00925
G1 X99.737 Y76.027 E.013
;WIDTH:0.469051
G1 X99.639 Y75.942 E.0046
;WIDTH:0.518102
G1 X99.542 Y75.858 E.00507
;WIDTH:0.567154
G1 X99.444 Y75.773 E.00565
;WIDTH:0.616205
G1 X99.347 Y75.689 E.00612
;WIDTH:0.665256
G1 X99.249 Y75.604 E.00671
G1 X99.314 Y75.589 E.00345
;WIDTH:0.627093
G1 X99.379 Y75.575 E.00323
;WIDTH:0.58893
G1 X99.511 Y75.573 E.00599
;WIDTH:0.546698
G1 X99.643 Y75.572 E.00553
;WIDTH:0.504465
G1 X99.774 Y75.57 E.00503
;WIDTH:0.462232
G1 X99.906 Y75.569 E.0046
;WIDTH:0.419999
G1 X100.318 Y75.631 E.01306
G1 X100.832 Y75.673 E.01617
G1 X106.385 Y75.681 E.17411
G1 X106.385 Y77.195 E.04747
G1 X106.385 Y106.062 E.9051
G1 X100.721 Y106.078 E.17759
G1 X99.428 Y106.252 E.04091
;WIDTH:0.463783
G1 X99.322 Y106.232 E.00377
;WIDTH:0.507567
G1 X99.216 Y106.213 E.00416
;WIDTH:0.551351
G1 X99.11 Y106.193 E.00456
;WIDTH:0.595134
G1 X99.004 Y106.174 E.00494
G1 X99.075 Y106.132 E.00379
;WIDTH:0.557619
G1 X99.146 Y106.091 E.00351
;WIDTH:0.520103
G1 X99.218 Y106.05 E.00329
;WIDTH:0.482588
G1 X99.289 Y106.009 E.003
;WIDTH:0.445072
G1 X99.543 Y105.842 E.01016
M204 P1000
G1 E-2.24 F4200
;WIPE_START
G1 F7200
G1 X99.739 Y105.714 E-.12973
G1 X99.959 Y105.379 E-.2221
G1 X100.019 Y105.031 E-.1957
G1 X99.937 Y104.637 E-.22302
G1 X99.738 Y104.359 E-.18945
;WIPE_END
G1 Z.4 F720
G1 X99.058 Y78.241 F9000
G1 Z.2 F720
G1 E3.2 F2400
M204 P600
;TYPE:Perimeter
;WIDTH:0.64441
G1 F1200
G1 X98.524 Y78.222 E.02672
M204 P1000
G1 E-2.24 F4200
;WIPE_START
G1 F7200
G1 X99.058 Y78.241 E-.29611
;WIPE_END
G1 E-.66389 F4200
G1 Z.4 F720
G1 X105.417 Y78.711 F9000
G1 Z.2 F720
G1 E3.2 F2400
M204 P600
;TYPE:External perimeter
;WIDTH:0.419999
G1 F1200
G1 X105.605 Y78.9 E.00836
G1 X105.605 Y94.043 E.4748
G1 X105.417 Y94.231 E.00834
G1 X92.325 Y94.225 E.41049
G1 X92.201 Y94.119 E.00511
G1 X92.185 Y94.043 E.00244
G1 X92.185 Y78.9 E.4748
G1 X92.223 Y78.787 E.00374
G1 X92.374 Y78.711 E.0053
G1 X105.357 Y78.711 E.40707
M204 P1000
G1 X105.647 Y78.578 F9000
G1 E-2.24 F4200
;WIPE_START
G1 F7200
G1 X105.605 Y78.9 E-.17279
G1 X105.605 Y80.321 E-.78721
;WIPE_END
G1 Z.4 F720
G1 X98.982 Y106.169 F9000
G1 Z.2 F720
G1 E3.2 F2400
M204 P600
;WIDTH:0.635171
G1 F1200
G1 X98.762 Y106.154 E.01086
;WIDTH:0.665258
G1 X98.541 Y106.139 E.01146
M204 P1000
G1 E-2.24 F4200
;WIPE_START
G1 F7200
G1 X98.762 Y106.154 E-.12275
G1 X98.982 Y106.169 E-.1222
;WIPE_END
G1 E-.71505 F4200
G1 Z.4 F720
G1 X105.995 Y78.9 F9000
G1 Z.2 F720
G1 E3.2 F2400
M204 P600
;TYPE:Perimeter
;WIDTH:0.445842
G1 F1200
G1 X105.995 Y94.043 E.50734
;WIDTH:0.454608
G1 X105.991 Y94.143 E.00343
M204 P1000
G1 X105.838 Y95.092 F9000
M204 P600
;TYPE:Solid infill
;WIDTH:0.421117
G1 F1200
G1 X105.592 Y94.846 E.01094
G1 X105.472 Y94.948 E.00495
G1 X105.159 Y94.948 E.00984
G1 X105.669 Y95.457 E.02266
G1 X105.669 Y95.992 E.01682
G1 X104.624 Y94.948 E.04645
G1 X104.089 Y94.948 E.01682
G1 X105.669 Y96.527 E.07025
G1 X105.669 Y97.062 E.01682
G1 X103.554 Y94.948 E.09404
G1 X103.02 Y94.948 E.01679
G1 X105.669 Y97.597 E.11781
G1 X105.669 Y98.132 E.01682
G1 X102.485 Y94.948 E.1416
G1 X101.95 Y94.948 E.01682
G1 X105.669 Y98.667 E.1654
G1 X105.669 Y99.201 E.01679
G1 X101.415 Y94.948 E.18917
G1 X100.88 Y94.948 E.01682
G1 X105.669 Y99.736 E.21296
G1 X105.669 Y100.271 E.01682
G1 X100.345 Y94.948 E.23675
G1 X99.811 Y94.948 E.01679
G1 X105.669 Y100.806 E.26052
G1 X105.669 Y101.341 E.01682
G1 X99.276 Y94.948 E.28432
G1 X98.741 Y94.948 E.01682
G1 X105.669 Y101.876 E.30811
G1 X105.669 Y102.411 E.01682
G1 X98.206 Y94.948 E.3319
G1 X97.671 Y94.948 E.01682
G1 X105.669 Y102.945 E.35567
G1 X105.669 Y103.48 E.01682
G1 X97.136 Y94.948 E.37947
G1 X96.601 Y94.948 E.01682
M73 P2 R41
G1 X105.669 Y104.015 E.40326
G1 X105.669 Y104.55 E.01682
G1 X96.067 Y94.948 E.42703
G1 X95.532 Y94.948 E.01682
G1 X105.669 Y105.085 E.45082
G1 X105.669 Y105.346 E.00821
G1 X105.396 Y105.347 E.00859
G1 X94.997 Y94.948 E.46248
G1 X94.462 Y94.948 E.01682
G1 X104.862 Y105.347 E.4625
G1 X104.327 Y105.348 E.01682
G1 X93.927 Y94.948 E.46252
G1 X93.392 Y94.948 E.01682
G1 X103.793 Y105.349 E.46256
G1 X103.259 Y105.35 E.01679
G1 X92.688 Y94.778 E.47015
M204 P1000
G1 E-2.24 F4200
;WIPE_START
G1 F7200
G1 X93.913 Y96.003 E-.96
;WIPE_END
G1 Z.4 F720
G1 X97.238 Y76.864 F9000
G1 Z.2 F720
G1 E3.2 F2400
M204 P600
G1 F1200
G1 X96.755 Y76.382 E.02146
G1 X96.236 Y76.397 E.01633
G1 X97.191 Y77.353 E.04249
G1 X97.31 Y77.601 E.00865
G1 X97.564 Y77.93 E.01307
G1 X97.64 Y77.995 E.00314
G1 X97.299 Y77.995 E.01072
G1 X95.701 Y76.397 E.07107
G1 X95.166 Y76.397 E.01682
G1 X96.764 Y77.995 E.07107
G1 X96.229 Y77.995 E.01682
G1 X94.631 Y76.397 E.07107
G1 X94.097 Y76.397 E.01679
G1 X95.694 Y77.995 E.07105
G1 X95.159 Y77.995 E.01682
G1 X93.562 Y76.397 E.07105
G1 X93.027 Y76.397 E.01682
G1 X94.624 Y77.995 E.07105
G1 X94.09 Y77.995 E.01679
G1 X92.492 Y76.397 E.07107
G1 X91.957 Y76.397 E.01682
G1 X93.555 Y77.995 E.07107
G1 X93.02 Y77.995 E.01682
G1 X91.422 Y76.397 E.07107
G1 X90.888 Y76.397 E.01679
G1 X92.485 Y77.995 E.07105
G1 X92.212 Y78.008 E.00859
G1 X92.027 Y78.072 E.00616
G1 X90.353 Y76.397 E.07447
G1 X89.818 Y76.397 E.01682
G1 X91.716 Y78.295 E.08441
G1 X91.649 Y78.353 E.00279
G1 X91.512 Y78.627 E.00963
G1 X89.283 Y76.397 E.09915
G1 X88.748 Y76.397 E.01682
G1 X91.469 Y79.118 E.12101
G1 X91.469 Y79.653 E.01682
G1 X88.213 Y76.397 E.1448
G1 X87.678 Y76.398 E.01682
G1 X91.469 Y80.188 E.16858
G1 X91.469 Y80.723 E.01682
G1 X87.144 Y76.398 E.19235
G1 X86.609 Y76.398 E.01682
G1 X91.469 Y81.257 E.21612
G1 X91.469 Y81.792 E.01682
G1 X86.074 Y76.398 E.23991
G1 X85.539 Y76.398 E.01682
G1 X91.469 Y82.327 E.2637
G1 X91.469 Y82.862 E.01682
G1 X85.004 Y76.398 E.2875
G1 X84.469 Y76.398 E.01682
G1 X91.469 Y83.397 E.31129
G1 X91.469 Y83.932 E.01682
G1 X83.935 Y76.398 E.33506
G1 X83.4 Y76.398 E.01682
G1 X91.469 Y84.467 E.35885
G1 X91.469 Y85.001 E.01679
G1 X82.865 Y76.398 E.38262
G1 X82.33 Y76.398 E.01682
G1 X91.469 Y85.536 E.40642
G1 X91.469 Y86.071 E.01682
G1 X81.795 Y76.398 E.43021
G1 X81.26 Y76.398 E.01682
G1 X91.469 Y86.606 E.454
G1 X91.469 Y87.141 E.01682
G1 X80.726 Y76.398 E.47777
G1 X80.191 Y76.398 E.01682
G1 X91.469 Y87.676 E.50157
G1 X91.469 Y88.211 E.01682
G1 X79.656 Y76.398 E.52536
G1 X79.121 Y76.398 E.01682
G1 X91.469 Y88.745 E.54913
G1 X91.469 Y89.28 E.01682
G1 X78.586 Y76.398 E.57292
G1 X78.051 Y76.398 E.01682
G1 X91.469 Y89.815 E.59672
G1 X91.469 Y90.35 E.01682
G1 X77.517 Y76.398 E.62049
G1 X76.982 Y76.398 E.01682
G1 X91.469 Y90.885 E.64428
G1 X91.469 Y91.42 E.01682
G1 X76.622 Y76.573 E.66029
G1 X76.622 Y77.107 E.01679
G1 X91.469 Y91.955 E.66031
G1 X91.469 Y92.489 E.01679
M73 P3 R41
G1 X76.622 Y77.642 E.66029
G1 X76.622 Y78.177 E.01682
G1 X91.469 Y93.024 E.66029
G1 X91.469 Y93.559 E.01682
G1 X76.622 Y78.712 E.66029
G1 X76.622 Y79.247 E.01682
G1 X91.476 Y94.101 E.6606
G1 X91.511 Y94.322 E.00704
G1 X91.631 Y94.563 E.00847
G1 X91.84 Y94.777 E.00941
G1 X92.137 Y94.918 E.01034
G1 X92.316 Y94.942 E.00568
G1 X102.725 Y105.35 E.4629
G1 X102.191 Y105.351 E.01679
G1 X76.622 Y79.782 E1.13713
G1 X76.622 Y80.316 E.01679
G1 X101.657 Y105.352 E1.11341
G1 X101.123 Y105.353 E.01679
G1 X100.529 Y104.759 E.02642
M204 P1000
G1 E-2.24 F4200
;WIPE_START
G1 F7200
G1 X101.123 Y105.353 E-.46552
G1 X101.657 Y105.352 E-.29593
G1 X101.404 Y105.099 E-.19855
;WIPE_END
G1 Z.4 F720
G1 X99.229 Y103.459 F9000
G1 Z.2 F720
G1 E3.2 F2400
M204 P600
G1 F1200
G1 X76.622 Y80.851 E1.00542
G1 X76.622 Y81.386 E.01682
G1 X98.534 Y103.298 E.97449
G1 X98.12 Y103.42 E.01357
G1 X76.622 Y81.921 E.9561
G1 X76.622 Y82.456 E.01682
G1 X97.792 Y103.626 E.94149
G1 X97.556 Y103.809 E.00939
M73 P3 R40
G1 X97.505 Y103.874 E.0026
G1 X76.622 Y82.991 E.92873
G1 X76.622 Y83.526 E.01682
G1 X97.291 Y104.195 E.91921
G1 X97.221 Y104.307 E.00415
G1 X97.129 Y104.568 E.0087
G1 X76.622 Y84.06 E.91203
G1 X76.622 Y84.595 E.01682
G1 X97.061 Y105.034 E.90899
G1 X97.094 Y105.374 E.01074
G1 X96.856 Y105.365 E.00749
G1 X76.622 Y85.13 E.89989
G1 X76.622 Y85.665 E.01682
G1 X96.302 Y105.345 E.87523
G1 X95.767 Y105.345 E.01682
M73 P4 R40
G1 X76.622 Y86.2 E.85144
G1 X76.622 Y86.735 E.01682
G1 X95.232 Y105.345 E.82764
G1 X94.697 Y105.345 E.01682
G1 X76.622 Y87.27 E.80385
G1 X76.622 Y87.804 E.01679
G1 X94.162 Y105.345 E.78008
G1 X93.628 Y105.345 E.01679
G1 X76.622 Y88.339 E.75631
G1 X76.622 Y88.874 E.01682
G1 X93.093 Y105.345 E.73252
G1 X92.558 Y105.345 E.01682
G1 X76.622 Y89.409 E.70872
G1 X76.622 Y89.944 E.01682
G1 X92.023 Y105.345 E.68493
G1 X91.488 Y105.345 E.01682
G1 X76.622 Y90.479 E.66114
G1 X76.622 Y91.014 E.01682
G1 X90.953 Y105.345 E.63734
G1 X90.418 Y105.345 E.01682
G1 X76.622 Y91.548 E.61357
G1 X76.622 Y92.083 E.01682
G1 X89.884 Y105.345 E.5898
G1 X89.349 Y105.345 E.01682
G1 X76.622 Y92.618 E.56601
G1 X76.622 Y93.153 E.01682
G1 X88.814 Y105.345 E.54222
G1 X88.279 Y105.345 E.01682
G1 X76.622 Y93.688 E.51842
G1 X76.622 Y94.223 E.01682
G1 X87.744 Y105.345 E.49463
G1 X87.209 Y105.345 E.01682
