; generated by PrusaSlicer 2.6.1 on 2023-12-18 at 13:33:45 UTC


;
;

;
;
; 

; external perimeters extrusion width = 0.45mm
; perimeters extrusion width = 0.45mm
; infill extrusion width = 0.45mm
; solid infill extrusion width = 0.45mm
; top infill extrusion width = 0.40mm
; support material extrusion width = 0.35mm
; first layer extrusion width = 0.42mm

M73 P0 R51
M201 X2500 Y2500 Z400 E5000 ; sets maximum accelerations, mm/sec^2
M203 X180 Y180 Z12 E80 ; sets maximum feedrates, mm / sec
M204 P2000 R1250 T2500 ; sets acceleration (P, T) and retract acceleration (R), mm/sec^2
M205 X8.00 Y8.00 Z2.00 E10.00 ; sets the jerk limits, mm/sec
M205 S0 T0 ; sets the minimum extruding and travel feed rate, mm/sec
;TYPE:Custom
M862.3 P "MINI" ; printer model check
G90 ; use absolute coordinates
M83 ; extruder relative mode
M104 S170 ; set extruder temp for bed leveling
M140 S60 ; set bed temp
M109 R170 ; wait for bed leveling temp
M190 S60 ; wait for bed temp
M204 T1250 ; set travel acceleration
G28 ; home all without mesh bed level
G29 ; mesh bed leveling 
M204 T2500 ; restore travel acceleration
M104 S215 ; set extruder temp
G92 E0
G1 Y-2 X179 F2400
G1 Z3 F720
M109 S215 ; wait for extruder temp

; intro line
G1 X170 F1000
G1 Z0.2 F720
G1 X110 E8 F900
G1 X40 E10 F700
G92 E0

M221 S95 ; set flow
G21 ; set units to millimeters
G90 ; use absolute coordinates
M83 ; use relative distances for extrusion
M900 K0.2 ; Filament gcode LA 1.5
; ; Filament gcode LA 1.0
M107
;LAYER_CHANGE
;Z:0.2
;HEIGHT:0.2
;BEFORE_LAYER_CHANGE
G92 E0.0
;0.2


M73 P0 R50
G1 E-3.2 F4200
G1 Z.2 F720
;AFTER_LAYER_CHANGE
;0.2
G1 Z.4
G1 X86.818 Y81.127 F9000
G1 Z.2 F720
G1 E3.2 F2400
M204 P600
;TYPE:Skirt/Brim
;WIDTH:0.42
G1 F1200
G1 X87.868 Y80.256 E.04277
G1 X88.795 Y80.068 E.02966
G1 X96.9 Y80.078 E.25413
G1 X128.87 Y83.022 E1.00664
G1 X129.61 Y83.213 E.02396
G1 X164.852 Y98.726 E1.2073
G1 X165.891 Y99.611 E.04279
G1 X166.272 Y100.902 E.0422
G1 X166.272 Y111.403 E.32925
G1 X165.88 Y112.71 E.04278
G1 X164.587 Y113.677 E.05062
G1 X111.524 Y129.827 E1.73911
G1 X110.832 Y129.93 E.02194
G1 X100.331 Y129.93 E.32925
G1 X99.579 Y129.808 E.02389
G1 X92.347 Y127.372 E.23927
G1 X83.118 Y122.757 E.32353
G1 X82.5 Y122.312 E.02388
G1 X80.193 Y120.005 E.1023
G1 X79.497 Y118.324 E.05705
G1 X79.497 Y93.981 E.76326
G1 X79.748 Y92.918 E.03425
G1 X82.203 Y88.048 E.171
G1 X86.784 Y81.177 E.25893
M204 P1000
; printing object ARM-End-Effector-Base-Body.stl id:0 copy 0
G1 E-2.24 F4200
;WIPE_START
G1 F7200
G1 X87.868 Y80.256 E-.78826
G1 X88.172 Y80.194 E-.17174
;WIPE_END
G1 Z.4 F720
G1 X96.682 Y85.025 F9000
G1 Z.2 F720
G1 E3.2 F2400
M204 P600
;TYPE:Support material
G1 F1200
G1 X93.682 Y85.025 E.09406
G1 X93.682 Y104.209 E.6015
G1 X123.674 Y104.209 E.94038
G1 X123.674 Y108.823 E.14467
M73 P1 R50
G1 X129.016 Y108.823 E.16749
G1 X129.016 Y108.288 E.01677
G1 X131.596 Y108.288 E.08089
G1 X131.596 Y113.71 E.17
G1 X129.289 Y113.71 E.07233
G1 X129.289 Y116.017 E.07233
G1 X124.674 Y116.017 E.1447
G1 X124.674 Y118.324 E.07233
G1 X122.367 Y118.324 E.07233
G1 X122.367 Y120.631 E.07233
G1 X117.753 Y120.631 E.14467
G1 X117.753 Y122.938 E.07233
G1 X115.446 Y122.938 E.07233
G1 X115.446 Y125.245 E.07233
G1 X110.832 Y125.245 E.14467
G1 X110.832 Y127.553 E.07237
G1 X100.331 Y127.553 E.32925
G1 X100.331 Y125.245 E.07237
G1 X93.41 Y125.245 E.217
G1 X93.41 Y122.938 E.07233
G1 X88.795 Y122.938 E.1447
G1 X88.795 Y120.631 E.07233
G1 X84.181 Y120.631 E.14467
G1 X84.181 Y118.324 E.07233
G1 X81.874 Y118.324 E.07233
G1 X81.874 Y93.981 E.76326
G1 X84.181 Y93.981 E.07233
G1 X84.181 Y89.366 E.1447
G1 X86.488 Y89.366 E.07233
G1 X86.488 Y87.059 E.07233
G1 X88.795 Y87.059 E.07233
G1 X88.795 Y82.445 E.14467
G1 X96.682 Y82.445 E.24729
G1 X96.682 Y84.968 E.07911
M204 P1000
G1 E-2.24 F4200
;WIPE_START
G1 F7200
G1 X96.682 Y83.236 E-.96
;WIPE_END
G1 Z.4 F720
G1 X131.161 Y113.54 F9000
G1 Z.2 F720
G1 E3.2 F2400
M204 P600
G1 F1200
G1 X131.161 Y108.627 E.15404
G1 X130.742 Y108.627 E.01314
G1 X130.742 Y113.371 E.14874
G1 X130.323 Y113.371 E.01314
G1 X130.323 Y108.627 E.14874
G1 X129.904 Y108.627 E.01314
G1 X129.904 Y113.371 E.14874
G1 X129.485 Y113.371 E.01314
G1 X129.485 Y108.627 E.14874
G1 X129.355 Y108.627 E.00408
G1 X129.355 Y109.163 E.01681
G1 X129.066 Y109.163 E.00906
G1 X129.066 Y113.371 E.13194
G1 X128.949 Y113.371 E.00367
G1 X128.949 Y115.678 E.07233
G1 X128.647 Y115.678 E.00947
G1 X128.647 Y109.163 E.20427
G1 X128.228 Y109.163 E.01314
G1 X128.228 Y115.678 E.20427
G1 X127.809 Y115.678 E.01314
G1 X127.809 Y109.163 E.20427
G1 X127.39 Y109.163 E.01314
G1 X127.39 Y115.678 E.20427
G1 X126.971 Y115.678 E.01314
G1 X126.971 Y109.163 E.20427
G1 X126.552 Y109.163 E.01314
G1 X126.552 Y115.678 E.20427
G1 X126.133 Y115.678 E.01314
G1 X126.133 Y109.163 E.20427
G1 X125.714 Y109.163 E.01314
G1 X125.714 Y115.678 E.20427
G1 X125.295 Y115.678 E.01314
G1 X125.295 Y109.163 E.20427
G1 X124.876 Y109.163 E.01314
G1 X124.876 Y115.678 E.20427
G1 X124.457 Y115.678 E.01314
G1 X124.457 Y109.163 E.20427
G1 X124.038 Y109.163 E.01314
G1 X124.038 Y117.985 E.27661
G1 X123.619 Y117.985 E.01314
G1 X123.619 Y109.163 E.27661
G1 X123.335 Y109.163 E.0089
G1 X123.335 Y104.548 E.1447
G1 X123.2 Y104.548 E.00423
G1 X123.2 Y117.985 E.42131
G1 X122.781 Y117.985 E.01314
G1 X122.781 Y104.548 E.42131
G1 X122.362 Y104.548 E.01314
G1 X122.362 Y117.985 E.42131
G1 X122.028 Y117.985 E.01047
G1 X122.028 Y120.292 E.07233
G1 X121.943 Y120.292 E.00267
G1 X121.943 Y104.548 E.49364
G1 X121.524 Y104.548 E.01314
G1 X121.524 Y120.292 E.49364
G1 X121.105 Y120.292 E.01314
G1 X121.105 Y104.548 E.49364
G1 X120.686 Y104.548 E.01314
G1 X120.686 Y120.292 E.49364
G1 X120.267 Y120.292 E.01314
G1 X120.267 Y104.548 E.49364
G1 X119.848 Y104.548 E.01314
G1 X119.848 Y120.292 E.49364
G1 X119.429 Y120.292 E.01314
G1 X119.429 Y104.548 E.49364
G1 X119.01 Y104.548 E.01314
G1 X119.01 Y120.292 E.49364
G1 X118.591 Y120.292 E.01314
G1 X118.591 Y104.548 E.49364
G1 X118.172 Y104.548 E.01314
G1 X118.172 Y120.292 E.49364
G1 X117.753 Y120.292 E.01314
G1 X117.753 Y104.548 E.49364
G1 X117.334 Y104.548 E.01314
G1 X117.334 Y122.599 E.56598
G1 X116.915 Y122.599 E.01314
G1 X116.915 Y104.548 E.56598
G1 X116.496 Y104.548 E.01314
G1 X116.496 Y122.599 E.56598
G1 X116.077 Y122.599 E.01314
G1 X116.077 Y104.548 E.56598
G1 X115.658 Y104.548 E.01314
M73 P2 R50
G1 X115.658 Y122.599 E.56598
G1 X115.239 Y122.599 E.01314
G1 X115.239 Y104.548 E.56598
G1 X114.82 Y104.548 E.01314
G1 X114.82 Y124.906 E.63831
G1 X114.401 Y124.906 E.01314
G1 X114.401 Y104.548 E.63831
G1 X113.983 Y104.548 E.01311
G1 X113.983 Y124.906 E.63831
G1 X113.564 Y124.906 E.01314
G1 X113.564 Y104.548 E.63831
G1 X113.145 Y104.548 E.01314
G1 X113.145 Y124.906 E.63831
G1 X112.726 Y124.906 E.01314
M73 P2 R49
G1 X112.726 Y104.548 E.63831
G1 X112.307 Y104.548 E.01314
G1 X112.307 Y124.906 E.63831
G1 X111.888 Y124.906 E.01314
G1 X111.888 Y104.548 E.63831
G1 X111.469 Y104.548 E.01314
G1 X111.469 Y124.906 E.63831
G1 X111.05 Y124.906 E.01314
G1 X111.05 Y104.548 E.63831
G1 X110.631 Y104.548 E.01314
G1 X110.631 Y124.906 E.63831
G1 X110.492 Y124.906 E.00436
G1 X110.492 Y127.213 E.07233
G1 X110.212 Y127.213 E.00878
G1 X110.212 Y104.548 E.71065
G1 X109.793 Y104.548 E.01314
G1 X109.793 Y127.213 E.71065
G1 X109.374 Y127.213 E.01314
G1 X109.374 Y104.548 E.71065
G1 X108.955 Y104.548 E.01314
G1 X108.955 Y127.213 E.71065
G1 X108.536 Y127.213 E.01314
G1 X108.536 Y104.548 E.71065
G1 X108.117 Y104.548 E.01314
G1 X108.117 Y127.213 E.71065
G1 X107.698 Y127.213 E.01314
G1 X107.698 Y104.548 E.71065
G1 X107.279 Y104.548 E.01314
G1 X107.279 Y127.213 E.71065
G1 X106.86 Y127.213 E.01314
G1 X106.86 Y104.548 E.71065
G1 X106.441 Y104.548 E.01314
G1 X106.441 Y127.213 E.71065
G1 X106.022 Y127.213 E.01314
G1 X106.022 Y104.548 E.71065
G1 X105.603 Y104.548 E.01314
G1 X105.603 Y127.213 E.71065
G1 X105.184 Y127.213 E.01314
G1 X105.184 Y104.548 E.71065
G1 X104.765 Y104.548 E.01314
G1 X104.765 Y127.213 E.71065
G1 X104.346 Y127.213 E.01314
G1 X104.346 Y104.548 E.71065
G1 X103.927 Y104.548 E.01314
M73 P3 R49
G1 X103.927 Y127.213 E.71065
G1 X103.508 Y127.213 E.01314
G1 X103.508 Y104.548 E.71065
G1 X103.089 Y104.548 E.01314
G1 X103.089 Y127.213 E.71065
G1 X102.67 Y127.213 E.01314
G1 X102.67 Y104.548 E.71065
G1 X102.251 Y104.548 E.01314
G1 X102.251 Y127.213 E.71065
G1 X101.832 Y127.213 E.01314
G1 X101.832 Y104.548 E.71065
G1 X101.413 Y104.548 E.01314
G1 X101.413 Y127.213 E.71065
G1 X100.994 Y127.213 E.01314
G1 X100.994 Y104.548 E.71065
G1 X100.575 Y104.548 E.01314
G1 X100.575 Y124.906 E.63831
G1 X100.156 Y124.906 E.01314
G1 X100.156 Y104.548 E.63831
G1 X99.737 Y104.548 E.01314
G1 X99.737 Y124.906 E.63831
G1 X99.318 Y124.906 E.01314
G1 X99.318 Y104.548 E.63831
G1 X98.899 Y104.548 E.01314
G1 X98.899 Y124.906 E.63831
G1 X98.48 Y124.906 E.01314
G1 X98.48 Y104.548 E.63831
G1 X98.061 Y104.548 E.01314
G1 X98.061 Y124.906 E.63831
G1 X97.642 Y124.906 E.01314
G1 X97.642 Y104.548 E.63831
G1 X97.223 Y104.548 E.01314
G1 X97.223 Y124.906 E.63831
G1 X96.804 Y124.906 E.01314
G1 X96.804 Y104.548 E.63831
G1 X96.385 Y104.548 E.01314
G1 X96.385 Y124.906 E.63831
G1 X95.967 Y124.906 E.01311
G1 X95.967 Y104.548 E.63831
G1 X95.548 Y104.548 E.01314
G1 X95.548 Y124.906 E.63831
G1 X95.129 Y124.906 E.01314
G1 X95.129 Y104.548 E.63831
G1 X94.71 Y104.548 E.01314
G1 X94.71 Y124.906 E.63831
G1 X94.291 Y124.906 E.01314
G1 X94.291 Y104.548 E.63831
G1 X93.872 Y104.548 E.01314
G1 X93.872 Y124.906 E.63831
G1 X93.749 Y124.906 E.00386
G1 X93.749 Y122.599 E.07233
G1 X93.453 Y122.599 E.00928
G1 X93.453 Y82.785 E1.24834
G1 X93.872 Y82.785 E.01314
G1 X93.872 Y84.686 E.0596
G1 X94.291 Y84.686 E.01314
M73 P4 R49
G1 X94.291 Y82.785 E.0596
G1 X94.71 Y82.785 E.01314
G1 X94.71 Y84.686 E.0596
G1 X95.129 Y84.686 E.01314
G1 X95.129 Y82.785 E.0596
G1 X95.548 Y82.785 E.01314
G1 X95.548 Y84.686 E.0596
G1 X95.967 Y84.686 E.01314
G1 X95.967 Y82.615 E.06493
M204 P1000
G1 E-2.24 F4200
;WIPE_START
G1 F7200
G1 X95.967 Y84.347 E-.96
;WIPE_END
G1 Z.4 F720
G1 X93.034 Y122.769 F9000
G1 Z.2 F720
G1 E3.2 F2400
M204 P600
G1 F1200
G1 X93.034 Y82.785 E1.25367
G1 X92.615 Y82.785 E.01314
G1 X92.615 Y122.599 E1.24834
G1 X92.196 Y122.599 E.01314
G1 X92.196 Y82.785 E1.24834
G1 X91.777 Y82.785 E.01314
M73 P4 R48
G1 X91.777 Y122.599 E1.24834
G1 X91.358 Y122.599 E.01314
G1 X91.358 Y82.785 E1.24834
G1 X90.939 Y82.785 E.01314
G1 X90.939 Y122.599 E1.24834
G1 X90.52 Y122.599 E.01314
G1 X90.52 Y82.785 E1.24834
G1 X90.101 Y82.785 E.01314
G1 X90.101 Y122.599 E1.24834
G1 X89.682 Y122.599 E.01314
G1 X89.682 Y82.785 E1.24834
G1 X89.263 Y82.785 E.01314
G1 X89.263 Y122.599 E1.24834
G1 X89.135 Y122.599 E.00401
G1 X89.135 Y120.292 E.07233
G1 X88.844 Y120.292 E.00912
G1 X88.844 Y87.399 E1.03134
G1 X88.425 Y87.399 E.01314
G1 X88.425 Y120.292 E1.03134
G1 X88.006 Y120.292 E.01314
G1 X88.006 Y87.399 E1.03134
G1 X87.587 Y87.399 E.01314
G1 X87.587 Y120.292 E1.03134
G1 X87.168 Y120.292 E.01314
G1 X87.168 Y87.399 E1.03134
G1 X86.828 Y87.399 E.01066
G1 X86.828 Y89.706 E.07233
G1 X86.749 Y89.706 E.00248
G1 X86.749 Y120.292 E.959
G1 X86.33 Y120.292 E.01314
M73 P5 R48
G1 X86.33 Y89.706 E.959
G1 X85.911 Y89.706 E.01314
G1 X85.911 Y120.292 E.959
G1 X85.492 Y120.292 E.01314
G1 X85.492 Y89.706 E.959
G1 X85.073 Y89.706 E.01314
G1 X85.073 Y120.292 E.959
G1 X84.654 Y120.292 E.01314
G1 X84.654 Y89.706 E.959
G1 X84.521 Y89.706 E.00417
G1 X84.521 Y94.32 E.14467
G1 X84.235 Y94.32 E.00897
G1 X84.235 Y117.985 E.742
G1 X83.816 Y117.985 E.01314
G1 X83.816 Y94.32 E.742
G1 X83.397 Y94.32 E.01314
G1 X83.397 Y117.985 E.742
G1 X82.978 Y117.985 E.01314
G1 X82.978 Y94.32 E.742
G1 X82.559 Y94.32 E.01314
G1 X82.559 Y118.155 E.74733
M204 P1000
G1 E-2.24 F4200
;WIPE_START
G1 F7200
G1 X82.559 Y116.423 E-.96
;WIPE_END
G1 Z.4 F720
G1 X94.12 Y103.845 F9000
G1 Z.2 F720
G1 E3.2 F2400
M204 P600
;TYPE:Support material interface
;WIDTH:0.35
G1 F1200
G1 X94.12 Y85.389 E.47125
G1 X94.627 Y85.389 E.01295
G1 X94.627 Y103.845 E.47125
G1 X95.134 Y103.845 E.01295
G1 X95.134 Y85.389 E.47125
G1 X95.642 Y85.389 E.01297
G1 X95.642 Y103.845 E.47125
G1 X96.149 Y103.845 E.01295
G1 X96.149 Y85.389 E.47125
G1 X96.656 Y85.389 E.01295
G1 X96.656 Y103.845 E.47125
G1 X97.163 Y103.845 E.01295
G1 X97.163 Y85.389 E.47125
G1 X97.67 Y85.389 E.01295
G1 X97.67 Y103.845 E.47125
G1 X98.177 Y103.845 E.01295
G1 X98.177 Y85.389 E.47125
G1 X98.684 Y85.389 E.01295
G1 X98.684 Y103.845 E.47125
G1 X99.191 Y103.845 E.01295
G1 X99.191 Y85.389 E.47125
G1 X99.698 Y85.389 E.01295
G1 X99.698 Y103.845 E.47125
G1 X100.205 Y103.845 E.01295
G1 X100.205 Y85.389 E.47125
G1 X100.712 Y85.389 E.01295
G1 X100.712 Y103.845 E.47125
G1 X101.219 Y103.845 E.01295
G1 X101.219 Y99.231 E.11781
G1 X100.967 Y99.231 E.00643
G1 X100.967 Y90.003 E.23563
G1 X101.219 Y90.003 E.00643
G1 X101.219 Y85.389 E.11781
G1 X101.573 Y85.389 E.00904
M204 P1000
G1 E-2.24 F4200
;WIPE_START
G1 F7200
M73 P6 R48
G1 X101.219 Y85.389 E-.19617
G1 X101.219 Y86.767 E-.76383
;WIPE_END
G1 Z.4 F720
G1 X101.373 Y90.003 F9000
G1 Z.2 F720
G1 E3.2 F2400
M204 P600
G1 F1200
G1 X101.726 Y90.003 E.00901
G1 X101.726 Y85.389 E.11781
G1 X102.234 Y85.389 E.01297
G1 X102.234 Y90.003 E.11781
G1 X102.741 Y90.003 E.01295
G1 X102.741 Y85.389 E.11781
G1 X103.248 Y85.389 E.01295
G1 X103.248 Y90.003 E.11781
G1 X103.755 Y90.003 E.01295
G1 X103.755 Y85.389 E.11781
G1 X104.262 Y85.389 E.01295
G1 X104.262 Y90.003 E.11781
G1 X104.769 Y90.003 E.01295
G1 X104.769 Y85.389 E.11781
G1 X105.276 Y85.389 E.01295
G1 X105.276 Y90.003 E.11781
G1 X105.783 Y90.003 E.01295
G1 X105.783 Y85.389 E.11781
G1 X106.29 Y85.389 E.01295
G1 X106.29 Y90.003 E.11781
G1 X106.797 Y90.003 E.01295
G1 X106.797 Y85.389 E.11781
G1 X107.304 Y85.389 E.01295
G1 X107.304 Y90.003 E.11781
G1 X107.811 Y90.003 E.01295
G1 X107.811 Y85.389 E.11781
G1 X108.319 Y85.389 E.01297
G1 X108.319 Y90.003 E.11781
G1 X108.826 Y90.003 E.01295
G1 X108.826 Y85.389 E.11781
G1 X109.333 Y85.389 E.01295
M73 P6 R47
G1 X109.333 Y90.003 E.11781
G1 X109.84 Y90.003 E.01295
G1 X109.84 Y85.389 E.11781
G1 X110.347 Y85.389 E.01295
G1 X110.347 Y90.003 E.11781
G1 X110.854 Y90.003 E.01295
G1 X110.854 Y85.389 E.11781
G1 X111.361 Y85.389 E.01295
G1 X111.361 Y90.003 E.11781
G1 X111.868 Y90.003 E.01295
G1 X111.868 Y85.389 E.11781
G1 X112.375 Y85.389 E.01295
G1 X112.375 Y90.003 E.11781
G1 X112.882 Y90.003 E.01295
G1 X112.882 Y85.389 E.11781
G1 X113.389 Y85.389 E.01295
G1 X113.389 Y90.003 E.11781
G1 X113.896 Y90.003 E.01295
G1 X113.896 Y85.389 E.11781
G1 X114.403 Y85.389 E.01295
G1 X114.403 Y90.003 E.11781
G1 X114.911 Y90.003 E.01297
G1 X114.911 Y85.389 E.11781
G1 X115.418 Y85.389 E.01295
G1 X115.418 Y90.003 E.11781
G1 X115.925 Y90.003 E.01295
G1 X115.925 Y85.389 E.11781
G1 X116.432 Y85.389 E.01295
G1 X116.432 Y90.003 E.11781
G1 X116.939 Y90.003 E.01295
G1 X116.939 Y85.389 E.11781
G1 X117.446 Y85.389 E.01295
G1 X117.446 Y90.003 E.11781
G1 X117.953 Y90.003 E.01295
G1 X117.953 Y85.389 E.11781
G1 X118.46 Y85.389 E.01295
G1 X118.46 Y90.003 E.11781
G1 X118.967 Y90.003 E.01295
G1 X118.967 Y85.389 E.11781
G1 X119.474 Y85.389 E.01295
G1 X119.474 Y90.003 E.11781
G1 X119.981 Y90.003 E.01295
G1 X119.981 Y85.389 E.11781
G1 X120.488 Y85.389 E.01295
G1 X120.488 Y90.003 E.11781
G1 X120.995 Y90.003 E.01295
G1 X120.995 Y85.389 E.11781
G1 X121.349 Y85.389 E.00904
M204 P1000
G1 E-2.24 F4200
;WIPE_START
G1 F7200
G1 X120.995 Y85.389 E-.19617
G1 X120.995 Y86.767 E-.76383
;WIPE_END
G1 Z.4 F720
G1 X128.602 Y85.389 F9000
G1 Z.2 F720
G1 E3.2 F2400
M204 P600
G1 F1200
G1 X128.602 Y103.734 E.46842
G1 X128.095 Y103.734 E.01295
G1 X128.095 Y85.389 E.46842
G1 X127.588 Y85.389 E.01295
G1 X127.588 Y103.734 E.46842
G1 X127.08 Y103.734 E.01297
G1 X127.08 Y85.389 E.46842
G1 X126.573 Y85.389 E.01295
G1 X126.573 Y103.734 E.46842
G1 X126.316 Y103.982 E.00912
G1 X126.316 Y108.261 E.10926
G1 X126.514 Y108.46 E.00717
G1 X126.066 Y108.46 E.01144
G1 X126.066 Y85.389 E.58909
G1 X125.559 Y85.389 E.01295
G1 X125.559 Y108.46 E.58909
G1 X125.052 Y108.46 E.01295
G1 X125.052 Y85.389 E.58909
G1 X124.545 Y85.389 E.01295
G1 X124.545 Y108.46 E.58909
G1 X124.038 Y108.46 E.01295
G1 X124.038 Y85.389 E.58909
G1 X123.531 Y85.389 E.01295
G1 X123.531 Y103.845 E.47125
